!!!!SEGMENT: pl-wtm--r-660-m--010_moniuszko-stanislaw--loteryja-no-9-zakonczenie.krn
!!!cenid: 18xx:3025
!!!COM: Moniuszko, Stanisław
!!!COM-rismid: pe30008351
!!!CDT: 1819/05/05-1872/06/04
!!!CNT: Polish
!!!GTL: Loteryja
!!!OTL: No. 9 - Zakończenie
!!!PDT: 1846
!!!AGN: Secular
!!!SMS-siglum: PL-Wtm
!!!SMS-shelfmark: R 660/M
!!!SMS-shelfwork: 010 G
!!!SMS-variant:
!!!SMS-altvar:
!!!NIFC-rismid: 1001090852
!!!URL-scan: http://repozytorium.nifc.pl/skany/pl-wtm-nut--r660m
!!!ONB-nifc: UWAGA: od skanu 0064dynam
**kern	**dynam	**kern	**text	**dynam	**kern	**text	**kern	**text	**dynam	**kern	**text	**dynam	**kern	**dynam	**kern	**dynam	**kern	**dynam	**kern	**dynam	**kern	**dynam	**kern	**dynam	**kern	**dynam	**kern	**dynam	**kern	**dynam	**kern	**dynam
*group4	*	*group4	*	*	*group5	*	*group5	*	*	*group5	*	*	*group4	*	*group4	*	*group4	*	*group3	*	*group2	*	*group2	*	*group1	*	*group1	*	*group1	*	*group1	*
*part15	*part15	*part14	*part14	*part14	*part13	*part13	*part12	*part12	*part12	*part11	*part11	*part11	*part10	*part10	*part9	*part9	*part8	*part8	*part7	*part7	*part6	*part6	*part5	*part5	*part4	*part4	*part3	*part3	*part2	*part2	*part1	*part1
*staff15	*	*staff14	*staff14	*	*staff13	*staff13	*staff12	*staff12	*	*staff11	*staff11	*	*staff10	*	*staff9	*	*staff8	*	*staff7	*	*staff6	*	*staff5	*	*staff4	*	*staff3	*	*staff2	*	*staff1	*
*Ibass	*	*Iempty	*	*	*Iempty	*	*Iempty	*	*	*Iempty	*	*	*Iviola	*	*Ivioln	*	*Ivioln	*	*Iempty	*	*Iempty	*	*Iempty	*	*Ifagot	*	*Iempty	*	*Ioboe	*	*Iflt	*
*I"CB.	*	*I"VCello	*	*	*	*	*	*	*	*I""Chór.	*	*	*I"Viola.	*	*I"V.2.	*	*I"V.1.	*	*I"D.A. Timpani.	*	*I"in D Trombe.	*	*I"in D. Corni.	*	*I"Fagotti.	*	*I"in A. Clarinetti.	*	*I"Oboi.	*	*I"Flauti.	*
*clefF4	*	*clefF4	*	*	*clefF4	*	*clefC4	*	*	*clefC1	*	*	*clefC3	*	*clefG2	*	*clefG2	*	*clefF4	*	*clefG2	*	*clefG2	*	*clefF4	*	*clefG2	*	*clefG2	*	*clefG2	*
*ITrd0c0	*	*	*	*	*	*	*	*	*	*	*	*	*	*	*	*	*	*	*	*	*ITrd-1c-2	*	*ITrd6c10	*	*	*	*ITrd2c3	*	*	*	*	*
*k[f#c#]	*	*k[f#c#]	*	*	*k[f#c#]	*	*k[f#c#]	*	*	*k[f#c#]	*	*	*k[f#c#]	*	*k[f#c#]	*	*k[f#c#]	*	*k[f#c#]	*	*k[f#c#]	*	*k[f#c#]	*	*k[f#c#]	*	*k[f#c#]	*	*k[f#c#]	*	*k[f#c#]	*
*D:	*	*D:	*	*	*D:	*	*D:	*	*	*D:	*	*	*D:	*	*D:	*	*D:	*	*D:	*	*D:	*	*D:	*	*D:	*	*D:	*	*D:	*	*D:	*
*M6/8	*	*M6/8	*	*	*M6/8	*	*M6/8	*	*	*M6/8	*	*	*M6/8	*	*M6/8	*	*M6/8	*	*M6/8	*	*M6/8	*	*M6/8	*	*M6/8	*	*M6/8	*	*M6/8	*	*M6/8	*
=1	=1	=1	=1	=1	=1	=1	=1	=1	=1	=1	=1	=1	=1	=1	=1	=1	=1	=1	=1	=1	=1	=1	=1	=1	=1	=1	=1	=1	=1	=1	=1	=1
*	*	*	*	*	*	*	*	*	*	*	*	*	*	*	*	*	*	*	*	*	*	*	*^	*	*^	*	*	*	*	*	*	*
*all\right	*	*all\right	*	*	*all\right	*	*all\right	*	*	*all\right	*	*	*all\right	*	*all\right	*	*all\right	*	*all\right	*	*all\right	*	*all\right	*	*all\right	*	*all\right	*	*all\right	*	*all\right	*	*all\right	*
*	*	*	*	*	*	*	*	*	*	*	*	*	*	*	*	*	*	*	*	*	*	*	*	*2\right	*	*	*2\right	*	*	*	*	*	*	*
!LO:TX:t=P:problem:all\right:global	!	!LO:TX:t=P:problem:all\right:global	!	!	!LO:TX:t=P:problem:all\right:global	!	!LO:TX:t=P:problem:all\right:global	!	!	!LO:TX:t=P:problem:all\right:global	!	!	!LO:TX:t=P:problem:all\right:global	!	!LO:TX:t=P:problem:all\right:global	!	!LO:TX:t=P:problem:all\right:global	!	!LO:TX:t=P:problem:all\right:global	!	!LO:TX:t=P:problem:all\right:global	!	!LO:TX:t=P:problem:all\right:global	!	!LO:TX:t=P:problem:all\right:global	!	!LO:TX:t=P:problem:all\right:global	!	!LO:TX:t=P:problem:all\right:global	!	!LO:TX:t=P:problem:all\right:global	!	!LO:TX:t=P:problem:all\right:global	!
!	!	!	!	!LO:DY:a	!	!	!	!	!	!	!	!	!	!	!	!	!	!	!	!	!	!	!	!	!	!	!	!LO:DY:a	!	!	!	!	!	!
[>4.D^>\	f	(<8DD^>/L	.	f	2.r	.	2.r	.	.	2.r	.	.	[<4.D^>/	f	8r	f	2.r	.	2.r	.	2.r	.	4r	[<2.D\	f	8r	2.DD\	f	2.r	.	2.r	.	2.r	.
.	.	8AA/)	.	.	.	.	.	.	.	.	.	.	.	.	8A/L	.	.	.	.	.	.	.	.	.	.	8AA/L	.	.	.	.	.	.	.	.
.	.	8D/J	.	.	.	.	.	.	.	.	.	.	.	.	[<8d/J	.	.	.	.	.	.	.	8r	.	.	[<8D/J	.	.	.	.	.	.	.	.
*	*	*rep	*	*	*	*	*	*	*	*	*	*	*	*	*	*	*	*	*	*	*	*	*	*	*	*	*	*	*	*	*	*	*	*
4.D^>\_>	.	(<8DD^>/L	.	.	.	.	.	.	.	.	.	.	4.D^>/_<	.	8d/L]	.	.	.	.	.	.	.	[4.A/	.	.	8D/L]	.	.	.	.	.	.	.	.
.	.	8AA/)	.	.	.	.	.	.	.	.	.	.	.	.	8A/	.	.	.	.	.	.	.	.	.	.	8AA/	.	.	.	.	.	.	.	.
.	.	8D/J	.	.	.	.	.	.	.	.	.	.	.	.	[<8d/J	.	.	.	.	.	.	.	.	.	.	[<8D/J	.	.	.	.	.	.	.	.
*	*	*Xrep	*	*	*	*	*	*	*	*	*	*	*	*	*	*	*	*	*	*	*	*	*	*	*	*	*	*	*	*	*	*	*	*
*	*	*	*	*	*	*	*	*	*	*	*	*	*	*	*	*	*	*	*	*	*	*	*	*	*	*v	*v	*	*	*	*	*	*	*
=2	=2	=2	=2	=2	=2	=2	=2	=2	=2	=2	=2	=2	=2	=2	=2	=2	=2	=2	=2	=2	=2	=2	=2	=2	=2	=2	=2	=2	=2	=2	=2	=2	=2
*	*	*	*	*	*	*	*	*	*	*	*	*	*	*	*	*	*	*	*	*	*	*	*	*	*	*	*	*	*	*	*	*^	*
4.D^>\_>	.	2.ryy	.	.	4r	.	4r	.	.	4r	.	.	4.D^>/_<	.	8d/L]	.	4r	.	2.r	.	2.r	.	2.A/_	2.D\_<	.	8D/L]	.	4r	.	4r	.	4r	2ryy	.
.	.	.	.	.	.	.	.	.	.	.	.	.	.	.	8A/	.	.	.	.	.	.	.	.	.	.	8AA/	.	.	.	.	.	.	.	.
.	.	.	.	.	8r	.	8r	.	.	8r	.	.	.	.	[<8d/J	.	8r	.	.	.	.	.	.	.	.	8D/J	.	8r	.	8r	.	8r	.	.
4.D^>\_	.	.	.	.	4r	.	4r	.	.	4r	.	.	4D^>/]	.	8d/L]	.	4r	.	.	.	.	.	.	.	.	4.ryy	.	4r	.	4r	.	4r	.	.
.	.	.	.	.	.	.	.	.	.	.	.	.	.	.	8A/	.	.	.	.	.	.	.	.	.	.	.	.	.	.	.	.	.	8ryy	.
!	!	!	!	!	!	!	!	!	!	!LO:TX:a:t=(&colon; Orszak ślubny oddala się &colon;)	!	!	!	!	!	!	!	!	!	!	!	!	!	!	!	!	!	!	!LO:DY:rj	!	!LO:DY:rj	!	!	!LO:DY:rj
.	.	.	.	.	8D\	Nie	8d\	Nie	.	8f#/	Nie	.	8d\	.	8f#/J	.	8d/	f	.	.	.	.	.	.	.	.	.	8d/ 8f#	f	8f#/ 8dd	f	8ff#/	8ff#\	f
=3	=3	=3	=3	=3	=3	=3	=3	=3	=3	=3	=3	=3	=3	=3	=3	=3	=3	=3	=3	=3	=3	=3	=3	=3	=3	=3	=3	=3	=3	=3	=3	=3	=3	=3
*	*	*	*	*	*	*	*	*	*	*	*	*	*	*	*	*	*	*	*	*	*	*	*	*	*	*^	*	*	*	*	*	*	*	*
!	!	!	!	!	!	!	!	!	!	!	!	!	!	!	!	!	!	!	!	!	!	!	!	!	!	!	!	!	!	!	!	!	!LO:TX:a:t=dolce assai.:rj	!	!
!	!	!	!	!	!	!	!	!	!	!	!	!	!	!	!	!	!	!	!	!	!LO:TX:a:t=Come sopra&colon; pag&colon; 102.\n A-B	!	!	!	!	!	!	!	!	!	!LO:TX:a:t=dolcissimo.	!	!LO:TX:a:t=A.	!	!
4.D^>\_>yy	.	(8DD/Lyy	.	.	4D\	[go-	4d\	[go-	.	4f#/	go-	.	(>4d\yy	.	(4f#/yy	.	(<16d/LLyy	.	2.r	.	2.r	.	2.A/_>yy	2.D\_<yy	.	8D/Lyy	2.DD\yy	.	(<4d/yy 4f#yy	.	(<4f#/yy 4ddyy	.	(>4ff#/yy	4ff#\yy	.
.	.	.	.	.	.	.	.	.	.	.	.	.	.	.	.	.	16f#/yy	.	.	.	.	.	.	.	.	.	.	.	.	.	.	.	.	.	.
.	.	8AA/)yy	.	.	.	.	.	.	.	.	.	.	.	.	.	.	16a/)yy	.	.	.	.	.	.	.	.	8AA/yy	.	.	.	.	.	.	.	.	.
.	.	.	.	.	.	.	.	.	.	.	.	.	.	.	.	.	16dd/yy	.	.	.	.	.	.	.	.	.	.	.	.	.	.	.	.	.	.
.	.	8D/Jyy	.	.	8D\	-niąc	8c#\	-niąc	.	8e/	-niąc	.	8c#\)yy	.	8e/)yy	.	16a'</yy	.	.	.	.	.	.	.	.	[<8D/Jyy	.	.	8c#/yy 8eyy	.	8e/yy 8cc#yy	.	8ee/yy	8ee\yy	.
.	.	.	.	.	.	.	.	.	.	.	.	.	.	.	.	.	16a'</JJyy	.	.	.	.	.	.	.	.	.	.	.	.	.	.	.	.	.	.
4.D^>\_>yy	.	(8DD/Lyy	.	.	4D\	za	4c#\	za	.	4e/	za	.	(>4c#\yy	.	(4e/yy	.	(16a\LLyy	.	.	.	.	.	.	.	.	8D/L]yy	.	.	4c#/yy 4eyy	.	4e/yy 4cc#yy	.	4ee/yy	4ee\yy	.
.	.	.	.	.	.	.	.	.	.	.	.	.	.	.	.	.	16cc#\yy	.	.	.	.	.	.	.	.	.	.	.	.	.	.	.	.	.	.
.	.	8AA/)yy	.	.	.	.	.	.	.	.	.	.	.	.	.	.	16ee\)yy	.	.	.	.	.	.	.	.	8AA/yy	.	.	.	.	.	.	.	.	.
.	.	.	.	.	.	.	.	.	.	.	.	.	.	.	.	.	16aa\yy	.	.	.	.	.	.	.	.	.	.	.	.	.	.	.	.	.	.
.	.	8D/Jyy	.	.	8D\	for-	8B\	for-	.	8g/	for-	.	8B\)yy	.	8g/)yy	.	16dd'>\yy	.	.	.	.	.	.	.	.	[<8D/Jyy	.	.	8d/yy 8gyy	.	8g/yy 8byy	.	8gg/yy	8gg\yy	.
.	.	.	.	.	.	.	.	.	.	.	.	.	.	.	.	.	16dd'>\JJyy	.	.	.	.	.	.	.	.	.	.	.	.	.	.	.	.	.	.
=4	=4	=4	=4	=4	=4	=4	=4	=4	=4	=4	=4	=4	=4	=4	=4	=4	=4	=4	=4	=4	=4	=4	=4	=4	=4	=4	=4	=4	=4	=4	=4	=4	=4	=4	=4
4.D^>\_>yy	.	(8DD/Lyy	.	.	4D\	-tu-	4B\	-tu-	.	4g/	-tu-	.	(>4B\yy	.	(4g/yy	.	(16dd\LLyy	.	2.r	.	2.r	.	2.A/]yy	2.D\_<yy	.	8D/L]yy	[<2.DD\yy	.	4d/yy 4gyy	.	4g/yy 4byy	.	4gg/yy	4gg\yy	.
.	.	.	.	.	.	.	.	.	.	.	.	.	.	.	.	.	16gg\yy	.	.	.	.	.	.	.	.	.	.	.	.	.	.	.	.	.	.
.	.	8AA/)yy	.	.	.	.	.	.	.	.	.	.	.	.	.	.	16bb\)yy	.	.	.	.	.	.	.	.	8AA/yy	.	.	.	.	.	.	.	.	.
.	.	.	.	.	.	.	.	.	.	.	.	.	.	.	.	.	16ddd\yy	.	.	.	.	.	.	.	.	.	.	.	.	.	.	.	.	.	.
.	.	8D/Jyy	.	.	8D\	-ny	8A\	-ny	.	8f#/	-ny	.	8A\)yy	.	8f#/)yy	.	16dd'\yy	.	.	.	.	.	.	.	.	[8D/Jyy	.	.	8d/yy 8f#yy	.	8f#/yy 8ayy	.	8ff#/)yy	8ff#\yy	.
.	.	.	.	.	.	.	.	.	.	.	.	.	.	.	.	.	16dd'\JJyy	.	.	.	.	.	.	.	.	.	.	.	.	.	.	.	.	.	.
4.D^>\_>yy	.	(8DD/Lyy	.	.	4D\	ma-	4A\	ma-	.	4f#/	ma-	.	8A\yy	.	8f#/yy	.	(16dd\LLyy	.	.	.	.	.	.	.	.	8D/L]yy	.	.	8d/)yy 8f#yy	.	8f#/)yy 8ayy	.	8ff#/yy	8ff#\yy	.
.	.	.	.	.	.	.	.	.	.	.	.	.	.	.	.	.	16aa\yy	.	.	.	.	.	.	.	.	.	.	.	.	.	.	.	.	.	.
.	.	8AA/)yy	.	.	.	.	.	.	.	.	.	.	8ryy	.	8ryy	.	16ff#\)yy	.	.	.	.	.	.	.	.	8AA/yy	.	.	8ryy	.	8ryy	.	8ryy	8ryy	.
.	.	.	.	.	.	.	.	.	.	.	.	.	.	.	.	.	16dd\yy	.	.	.	.	.	.	.	.	.	.	.	.	.	.	.	.	.	.
.	.	8D/Jyy	.	.	8D\	-rą,	8d\	-rą,	.	8a/	-rą,	.	8f#\yy	.	8a/yy	.	16a'\yy	.	.	.	.	.	.	.	.	[8D/Jyy	.	.	(>8f#\yy 8ayy	.	8f#/yy 8ddyy	.	8aa/yy	8aa\yy	.
.	.	.	.	.	.	.	.	.	.	.	.	.	.	.	.	.	16a'\JJyy	.	.	.	.	.	.	.	.	.	.	.	.	.	.	.	.	.	.
=5	=5	=5	=5	=5	=5	=5	=5	=5	=5	=5	=5	=5	=5	=5	=5	=5	=5	=5	=5	=5	=5	=5	=5	=5	=5	=5	=5	=5	=5	=5	=5	=5	=5	=5	=5
4.D^>\_>yy	.	(8DD/Lyy	.	.	(>4G\	w ci-	(>4c#\	w ci-	.	(>4b\	w ci-	.	(>4c#^<\yy	.	(4b/yy	.	(16g/LLyy	.	2.r	.	2.r	.	2.d/yy	2.D\_yy	.	8D/L]yy	2.DD\_<yy	.	4g\yy 4cc#yy	.	(<4e/yy 4cc#yy	.	(>4bb/yy	4bb\yy	.
.	.	.	.	.	.	.	.	.	.	.	.	.	.	.	.	.	16f#/yy	.	.	.	.	.	.	.	.	.	.	.	.	.	.	.	.	.	.
.	.	8AA/)yy	.	.	.	.	.	.	.	.	.	.	.	.	.	.	16g/)yy	.	.	.	.	.	.	.	.	8AA/yy	.	.	.	.	.	.	.	.	.
.	.	.	.	.	.	.	.	.	.	.	.	.	.	.	.	.	(16b/yy	.	.	.	.	.	.	.	.	.	.	.	.	.	.	.	.	.	.
.	.	8D/Jyy	.	.	8F#\)	.	8d\)	.	.	8a\)	.	.	8d\)yy	.	8a/)yy	.	16a/yy	.	.	.	.	.	.	.	.	[<8D/Jyy	.	.	8f#\yy 8ddyy	.	8f#/yy 8ddyy	.	8aa/yy	8aa\yy	.
.	.	.	.	.	.	.	.	.	.	.	.	.	.	.	.	.	16dd/JJ)yy	.	.	.	.	.	.	.	.	.	.	.	.	.	.	.	.	.	.
4.D^>\_>yy	.	(8DD/Lyy	.	.	4E\	-chej	4e\	-chej	.	4g\	-chej	.	(4A#X^<\yy	.	(4g/yy	.	(16cc#\LLyy	.	.	.	.	.	.	.	.	8D/L]yy	.	.	4c#yy\ 4b-Xyy	.	4g/yy 4eeyy	.	4gg/yy	4gg\yy	.
.	.	.	.	.	.	.	.	.	.	.	.	.	.	.	.	.	16b\yy	.	.	.	.	.	.	.	.	.	.	.	.	.	.	.	.	.	.
.	.	8AA/)yy	.	.	.	.	.	.	.	.	.	.	.	.	.	.	16cc#\)yy	.	.	.	.	.	.	.	.	8AA/yy	.	.	.	.	.	.	.	.	.
.	.	.	.	.	.	.	.	.	.	.	.	.	.	.	.	.	(16ee\yy	.	.	.	.	.	.	.	.	.	.	.	.	.	.	.	.	.	.
.	.	8D/Jyy	.	.	8D\	mias-	8f#\	mias-	.	8f#\	mias-	.	8B\)yy	.	8f#/)yy	.	16dd\yy	.	.	.	.	.	.	.	.	[<8D/Jyy	.	.	8d\)yy 8ayy	.	8f#/)yy 8ddyy	.	8ff#/)yy	8ff#\yy	.
.	.	.	.	.	.	.	.	.	.	.	.	.	.	.	.	.	16ff#\JJ)yy	.	.	.	.	.	.	.	.	.	.	.	.	.	.	.	.	.	.
=6	=6	=6	=6	=6	=6	=6	=6	=6	=6	=6	=6	=6	=6	=6	=6	=6	=6	=6	=6	=6	=6	=6	=6	=6	=6	=6	=6	=6	=6	=6	=6	=6	=6	=6	=6
*	*	*	*	*	*	*	*	*	*	*	*	*	*	*	*	*	*	*	*	*	*	*	*	*	*	*	*	*	*^	*	*	*	*	*	*
4.D^>\_>yy	.	(8DD/Lyy	.	.	4.AA/	-noś-	4.e\	-noś-	.	(>4a\	-noś-	.	4c#\yy	.	4A/yy 4eyy	.	(16ee\LLyy	.	2.r	.	2.r	.	[>2.A/yy	2.D\_<yy	.	8D/L]yy	2.DD\_<yy	.	(>4a/yy	4a\yy	.	[<4.a\yy [>4.cc#yy	.	(>4aa/yy	4aa\yy	.
.	.	.	.	.	.	.	.	.	.	.	.	.	.	.	.	.	16aa\yy	.	.	.	.	.	.	.	.	.	.	.	.	.	.	.	.	.	.	.
.	.	8AA/)yy	.	.	.	.	.	.	.	.	.	.	.	.	.	.	16ee\)yy	.	.	.	.	.	.	.	.	8AA/yy	.	.	.	.	.	.	.	.	.	.
.	.	.	.	.	.	.	.	.	.	.	.	.	.	.	.	.	16cc#\yy	.	.	.	.	.	.	.	.	.	.	.	.	.	.	.	.	.	.	.
.	.	8D/Jyy	.	.	.	.	.	.	.	8g\)	.	.	8c#\yy	.	8A/yy 8eyy	.	16a'>\yy	.	.	.	.	.	.	.	.	[<8D/Jyy	.	.	8g/yy	8g\yy	.	.	.	8gg/yy	8gg\yy	.
.	.	.	.	.	.	.	.	.	.	.	.	.	.	.	.	.	16a'>\JJyy	.	.	.	.	.	.	.	.	.	.	.	.	.	.	.	.	.	.	.
4.D^>\_>yy	.	(8DD/Lyy	.	.	8AA/	-ci	8A\	-ci	.	8e/	-ci	.	8c#\yy	.	8A/yy 8eyy	.	(16cc#\LLyy	.	.	.	.	.	.	.	.	8D/L]yy	.	.	8e/)yy	8e\yy	.	8a\]yy 8cc#]yy	.	8ee/)yy	8ee\yy	.
.	.	.	.	.	.	.	.	.	.	.	.	.	.	.	.	.	16b\yy	.	.	.	.	.	.	.	.	.	.	.	.	.	.	.	.	.	.	.
.	.	8AA/)yy	.	.	8r	.	8r	.	.	8r	.	.	8ryy	.	8ryy	.	16a\)yy	.	.	.	.	.	.	.	.	8AA/yy	.	.	8ryy	8ryy	.	8ryy	.	8ryy	8ryyyy	.
.	.	.	.	.	.	.	.	.	.	.	.	.	.	.	.	.	16g\yy	.	.	.	.	.	.	.	.	.	.	.	.	.	.	.	.	.	.	.
.	.	8D/Jyy	.	.	8D\	wśród	8d\	wśród	.	8f#/	wśród	.	8d\yy	.	8f#/yy	.	16f#\yy	.	.	.	.	.	.	.	.	[<8D/Jyy	.	.	8d/yy 8f#yy	8ryy	.	8f#/yy 8ddyy	.	8ff#/yy	8ff#\yy	.
.	.	.	.	.	.	.	.	.	.	.	.	.	.	.	.	.	16e\JJyy	.	.	.	.	.	.	.	.	.	.	.	.	.	.	.	.	.	.	.
*	*	*	*	*	*	*	*	*	*	*	*	*	*	*	*	*	*	*	*	*	*	*	*	*	*	*	*	*	*v	*v	*	*	*	*	*	*
!!LO:PB:g=original
=7	=7	=7	=7	=7	=7	=7	=7	=7	=7	=7	=7	=7	=7	=7	=7	=7	=7	=7	=7	=7	=7	=7	=7	=7	=7	=7	=7	=7	=7	=7	=7	=7	=7	=7	=7
4.D^\_>yy	.	(<8DD/Lyy	.	.	4D\	da-	4d\	da-	.	4f#/	da-	.	(>4d\yy	.	(<4f#/yy	.	(<16d/LLyy	.	2.ryy	.	2.r	.	(2.A/]yy	2.D\_yy	.	8D/L]yy	2.DD\]yy	.	(<4d/yy 4f#yy	.	(<4f#/yy 4ddyy	.	(>4ff#/yy	4ff#\yy	.
.	.	.	.	.	.	.	.	.	.	.	.	.	.	.	.	.	16f#/yy	.	.	.	.	.	.	.	.	.	.	.	.	.	.	.	.	.	.
.	.	8AA/)yy	.	.	.	.	.	.	.	.	.	.	.	.	.	.	16a/)yy	.	.	.	.	.	.	.	.	8AA/yy	.	.	.	.	.	.	.	.	.
.	.	.	.	.	.	.	.	.	.	.	.	.	.	.	.	.	16dd/yy	.	.	.	.	.	.	.	.	.	.	.	.	.	.	.	.	.	.
.	.	8D/Jyy	.	.	8D\	-rów	8c#\	-rów	.	8e/	-rów	.	8c#\)yy	.	8e/)yy	.	16a'</yy	.	.	.	.	.	.	.	.	[<8D/Jyy	.	.	8c#/yy 8eyy	.	8e/yy 8cc#yy	.	8ee/yy	8ee\yy	.
.	.	.	.	.	.	.	.	.	.	.	.	.	.	.	.	.	16a'</JJyy	.	.	.	.	.	.	.	.	.	.	.	.	.	.	.	.	.	.
4.D^\]yy	.	(<8DD/Lyy	.	.	4D\	szczę-	4c#\	szczę-	.	4e/	szczę-	.	(>4c#\yy	.	(<4e/yy	.	(>16a\LLyy	.	.	.	.	.	.	.	.	8D/L]yy	.	.	4c#/yy 4eyy	.	4e/yy 4cc#yy	.	4ee/yy	4ee\yy	.
.	.	.	.	.	.	.	.	.	.	.	.	.	.	.	.	.	16cc#\)yy	.	.	.	.	.	.	.	.	.	.	.	.	.	.	.	.	.	.
.	.	8AA/)yy	.	.	.	.	.	.	.	.	.	.	.	.	.	.	16ee\yy	.	.	.	.	.	.	.	.	8AA/yy	.	.	.	.	.	.	.	.	.
.	.	.	.	.	.	.	.	.	.	.	.	.	.	.	.	.	16aa\yy	.	.	.	.	.	.	.	.	.	.	.	.	.	.	.	.	.	.
.	.	8D/Jyy	.	.	8D\	-ścia	8B\	-ścia	.	8g/	-ścia	.	8B\)yy	.	8g/)yy	.	16dd'>\yy	.	.	.	.	.	.	.	.	8D/Jyy	.	.	8d/yy 8gyy	.	8g/yy 8byy	.	8gg/)yy	8gg\yy	.
.	.	.	.	.	.	.	.	.	.	.	.	.	.	.	.	.	16dd'>\JJyy	.	.	.	.	.	.	.	.	.	.	.	.	.	.	.	.	.	.
*	*	*	*	*	*	*	*	*	*	*	*	*	*	*	*	*	*	*	*	*	*	*	*v	*v	*	*	*	*	*	*	*	*	*	*	*
=8	=8	=8	=8	=8	=8	=8	=8	=8	=8	=8	=8	=8	=8	=8	=8	=8	=8	=8	=8	=8	=8	=8	=8	=8	=8	=8	=8	=8	=8	=8	=8	=8	=8	=8
4.D\yy	.	8DD/Lyy	.	.	4D\	i	4B\	i	.	4g/	i	.	4B/yy	.	4g/yy	.	(>16dd\LLyy	.	2.ryy	.	2.r	.	4.D/_<)yy [>4.dyy	.	8D/Lyy	[<4.DD\yy	.	4d/yy 4gyy	.	4g/yy 4byy	.	(>4gg/yy	4gg\yy	.
.	.	.	.	.	.	.	.	.	.	.	.	.	.	.	.	.	16gg\)yy	.	.	.	.	.	.	.	.	.	.	.	.	.	.	.	.	.
.	.	8AA/yy	.	.	.	.	.	.	.	.	.	.	.	.	.	.	16bb\yy	.	.	.	.	.	.	.	8AA/yy	.	.	.	.	.	.	.	.	.
.	.	.	.	.	.	.	.	.	.	.	.	.	.	.	.	.	16ddd\yy	.	.	.	.	.	.	.	.	.	.	.	.	.	.	.	.	.
.	.	8D/Jyy	.	.	8D\	mi-	8A\	mi-	.	8f#/	mi-	.	8A/yy	.	8f#/yy	.	16dd\yy	.	.	.	.	.	.	.	8D/Jy	.	.	8d/yy 8f#yy	.	8f#/)yy 8ayy	.	8ff#/yy	8ff#\yy	.
.	.	.	.	.	.	.	.	.	.	.	.	.	.	.	.	.	16dd\JJyy	.	.	.	.	.	.	.	.	.	.	.	.	.	.	.	.	.
4D\yy	.	8DD/Lyy	.	.	8D\	-łoś-	8A\	-łoś-	.	8f#/	-łoś-	.	8A/Lyy	.	8f#/Lyy	.	(>16dd\LLyy	.	.	.	.	.	4D/]yy 4d]yy	.	8ryy	4DD\]yy	.	8d/)yy 8f#yy	.	8f#/yy 8ayy	.	8ff#/)yy	8ff#\yy	.
.	.	.	.	.	.	.	.	.	.	.	.	.	.	.	.	.	16aa\)yy	.	.	.	.	.	.	.	.	.	.	.	.	.	.	.	.	.
.	.	8D/yy	.	.	8D\	-ci	8F#\	-ci	.	8f#/	-ci	.	8F#/yy	.	8d/yy	.	16ff#\yy	.	.	.	.	.	.	.	8D/Lyy	.	.	8ryy	.	8ryy	.	8ryy	8ryyyy	.
.	.	.	.	.	.	.	.	.	.	.	.	.	.	.	.	.	16dd\yy	.	.	.	.	.	.	.	.	.	.	.	.	.	.	.	.	.
8F#\yy	.	8F#/Jyy	.	.	8F#\	żyj	8d\	żyj	.	8a\	żyj	.	8D/Jyy	.	8a/Jyy	.	16a\yy	.	.	.	.	.	8D/yy 8dyy	.	8F#/Jyy	8FF#\yy	.	8d/yy 8ayy	.	8a\yy 8ddyy	.	8aa/yy	8aa\yy	.
.	.	.	.	.	.	.	.	.	.	.	.	.	.	.	.	.	16f#\JJyy	.	.	.	.	.	.	.	.	.	.	.	.	.	.	.	.	.
=9	=9	=9	=9	=9	=9	=9	=9	=9	=9	=9	=9	=9	=9	=9	=9	=9	=9	=9	=9	=9	=9	=9	=9	=9	=9	=9	=9	=9	=9	=9	=9	=9	=9	=9
*	*	*	*	*	*	*	*	*	*	*	*	*	*	*	*	*	*	*	*	*	*	*	*	*	*	*	*	*^	*	*	*	*	*	*
!!mixed beam:problem
!	!	!	!	!	!	!	!	!	!	!	!	!	!	!	!	!	!LO:TX:t=P:problem:mixed beam	!	!	!	!	!	!	!	!	!	!	!	!	!	!	!	!	!	!
4G\yy	.	(>8G\Lyy	.	sf > y	4G\	dłu-	4d\	dłu-	.	4b\	dłu-	.	(<8G/Lyy	sf > y	(<8b/Lyy	sf > y	16d/LLyy	.	2.ryy	.	2.r	.	4D/yy 4dyy	sf > y	(<8G/Lyy	4GG\yy	sf > y	(>4d/yy 4byy	4.ryy	sf > y	(>4b\yy 4ddyy	sf > y	(>4bb/yy	4bb\yy	sf > y
.	.	.	.	.	.	.	.	.	.	.	.	.	.	.	.	.	16dd\yy	.	.	.	.	.	.	.	.	.	.	.	.	.	.	.	.	.	.
.	.	8D\)yy	.	.	.	.	.	.	.	.	.	.	8d/)yy	.	8d/)yy	.	16bb\yy|	.	.	.	.	.	.	.	8D/)yy	.	.	.	.	.	.	.	.	.	.
.	.	.	.	.	.	.	.	.	.	.	.	.	.	.	.	.	16dd\yy|	.	.	.	.	.	.	.	.	.	.	.	.	.	.	.	.	.	.
8F#\yy	.	8F#\Jyy	.	.	8F#\	-go	8d\	-go	.	8a\	-go	.	8F#/Jyy	.	8a/Jyy	.	16aa\yy|	.	.	.	.	.	8D/yy 8dyy	.	8F#/Jyy	8FF#\yy	.	8d/yy 8ayy	.	.	8a\yy 8ddyy	.	8aa/yy	8aa\yy	.
.	.	.	.	.	.	.	.	.	.	.	.	.	.	.	.	.	16dd\JJyy|	.	.	.	.	.	.	.	.	.	.	.	.	.	.	.	.	.	.
4B\yy	.	(>8B\Lyy	.	.	4B\	mło-	4d\	mło-	.	4f#/	mło-	.	(<8B/Lyy	.	(<8f#/Lyy	.	(>16ff#\LLyy	.	.	.	.	.	4D/yy 4dyy	.	(<8B/Lyy	4BB\yy	.	4f#/yy	4f#\yy	.	4f#\yy 4ff#yy	.	4ff#/yy	4ff#\yy	.
.	.	.	.	.	.	.	.	.	.	.	.	.	.	.	.	.	16b\)yy	.	.	.	.	.	.	.	.	.	.	.	.	.	.	.	.	.	.
.	.	8F#\)yy	.	.	.	.	.	.	.	.	.	.	8D/)yy	.	8B/)yy	.	16ff#\yy|	.	.	.	.	.	.	.	8F#/)yy	.	.	.	.	.	.	.	.	.	.
.	.	.	.	.	.	.	.	.	.	.	.	.	.	.	.	.	16f#\yy|	.	.	.	.	.	.	.	.	.	.	.	.	.	.	.	.	.	.
8BB/yy	.	8B\Jyy	.	]	8B\	-da	8F#/	-da	.	8d/	-da	.	8F#/Jyy	]	8d/Jyy	]	16dd\yy|	.	.	.	.	.	8D/yy 8dyy	]]	8B/Jyy	8BB\yy	]	8d/)yy	8d\yy	]	8b\yy 8dd)yy	]	8dd/)yy	8dd\yy	.
.	.	.	.	.	.	.	.	.	.	.	.	.	.	.	.	.	16d\JJyy|	.	.	.	.	.	.	.	.	.	.	.	.	.	.	.	.	.	.
*	*	*	*	*	*	*	*	*	*	*	*	*	*	*	*	*	*	*	*	*	*	*	*	*	*v	*v	*	*	*	*	*	*	*	*	*
=10	=10	=10	=10	=10	=10	=10	=10	=10	=10	=10	=10	=10	=10	=10	=10	=10	=10	=10	=10	=10	=10	=10	=10	=10	=10	=10	=10	=10	=10	=10	=10	=10	=10	=10
*	*	*	*	*	*	*	*	*	*	*	*	*	*	*	*	*	*	*	*	*	*	*	*	*	*	*	*	*	*	*^	*	*	*	*
*	*	*tremolo	*	*	*	*	*	*	*	*	*	*	*tremolo	*	*tremolo	*	*	*	*	*	*	*	*	*	*	*	*	*	*	*	*	*	*	*	*
(<4.AA/yy	.	8A\Lyy	.	.	4.A\	pa-	4.A\	pa-	.	4.e/	pa-	.	8A/Lyy	.	8c#/Lyy 8eyy	.	16e\LLyy	.	4ryy	.	2.r	.	(<4.A\yy (>4.eyy	.	(<4.AA\yy [>4.Ayy	]	4.eTT>/yy	4.c#\t<yy	.	4.ryy	(<4.cc#\tt<yy (>4.eeTT>yy	.	(>4.eeTT>/yy	(<4.ee\TT<yy	]
.	.	.	.	.	.	.	.	.	.	.	.	.	.	.	.	.	16a\yy	.	.	.	.	.	.	.	.	.	.	.	.	.	.	.	.	.	.
.	.	8A\yy	.	.	.	.	.	.	.	.	.	.	8A/yy	.	8c#/yy 8eyy	.	16cc#\yy	.	.	.	.	.	.	.	.	.	.	.	.	.	.	.	.	.	.
.	.	.	.	.	.	.	.	.	.	.	.	.	.	.	.	.	16ee\yy	.	.	.	.	.	.	.	.	.	.	.	.	.	.	.	.	.	.
.	.	8A\Jyy	.	.	.	.	.	.	.	.	.	.	8A/Jyy	.	8c#/Jyy 8eyy	.	16gg\yy	.	8ryy	.	.	.	.	.	.	.	.	.	.	.	.	.	.	.	.
.	.	.	.	.	.	.	.	.	.	.	.	.	.	.	.	.	16cc#\JJyy	.	.	.	.	.	.	.	.	.	.	.	.	.	.	.	.	.	.
*	*	*Xtremolo	*	*	*	*	*	*	*	*	*	*	*	*	*Xtremolo	*	*	*	*	*	*	*	*	*	*	*	*	*	*	*	*	*	*	*	*
!	!	!	!	!	!	!	!	!	!LO:TX:a:t=P:problem:na całej te jstronie i początku kolejnej zapis (dwukrotnie) "di=mi=nu-en=do."	!	!	!	!	!	!	!	!	!	!LO:TX:t=P:problem:p[iano]=p.	!LO:DY:rj	!	!	!	!	!	!	!	!	!	!	!	!	!	!	!
8D/L)yy	.	8D\Lyy|	.	.	4D\	-ro.	4d\	-ro.	.	4d/	-ro.	.	8D/Lyy	.	8d'</Lyy	.	16dd\LLyy	.	8D'\Lyy	p y	.	.	8D/L))yy 8dyy	.	8D\)yy 8A]yy	.	8d/yy	8d\yy	.	8dd/)yy	8dd\)yy	.	8dd/)yy	8dd\)yy	.
.	.	.	.	.	.	.	.	.	.	.	.	.	.	.	.	.	16dd\yy|	.	.	.	.	.	.	.	.	.	.	.	.	.	.	.	.	.	.
8D'/yy	.	8D\yy|	.	.	.	.	.	.	.	.	.	.	8D/yy	.	16c#/Lyy	.	(>16cc#\yy	.	8D'\yy	.	.	.	8D/yy 8dyy	.	8ryy	.	8ryy	8ryy	.	16cc#/LLyy	16cc#\LLyy	.	8ryy	8ryy	.
.	.	.	.	.	.	.	.	.	.	.	.	.	.	.	16d/yy	.	16dd\yy	.	.	.	.	.	.	.	.	.	.	.	.	16dd/yy	16dd\yy	.	.	.	.
8D'/Jyy	.	8D\Jyy|	.	.	8r	.	8r	.	.	8r	.	.	8D/Jyy	.	16e/yy	.	16ee\yy	.	8D'\Jyy	.	.	.	8D/Jyy 8dyy	.	8ryy	.	8ryy	8ryy	.	16ee/yy	16ee\yy	.	8ryy	8ryy	.
.	.	.	.	.	.	.	.	.	.	.	.	.	.	.	16d/JJyy	.	16dd\JJ)yy	.	.	.	.	.	.	.	.	.	.	.	.	16dd/JJyy	16dd\JJyy	.	.	.	.
*	*	*	*	*	*	*	*	*	*	*	*	*	*Xtremolo	*	*	*	*	*	*	*	*	*	*	*	*	*	*	*	*	*	*	*	*	*	*
*	*	*	*	*	*	*	*	*	*	*	*	*	*	*	*	*	*	*	*	*	*	*	*	*	*	*	*	*	*	*v	*v	*	*	*	*
*	*	*	*	*	*	*	*	*	*	*	*	*	*	*	*	*	*	*	*	*	*	*	*	*	*	*	*	*	*	*	*	*v	*v	*
=11	=11	=11	=11	=11	=11	=11	=11	=11	=11	=11	=11	=11	=11	=11	=11	=11	=11	=11	=11	=11	=11	=11	=11	=11	=11	=11	=11	=11	=11	=11	=11	=11	=11
*tremolo	*	*tremolo	*	*	*	*	*	*	*	*	*	*	*	*	*	*	*	*	*tremolo	*	*	*	*tremolo	*	*	*	*	*	*	*	*	*	*
!LO:TX:t=P:problem:mf=mf.	!	!LO:TX:a:t=col CB.	!	!	!	!	!	!	!	!	!	!	!	!LO:DY:rj	!LO:TX:t=P:problem:mf=mf.	!	!LO:TX:t=P:problem:mf=mf.	!	!	!	!LO:TX:t=P:problem:mf=mf.	!	!	!	!	!	!	!	!	!	!	!LO:TX:a:t=a due.	!
8D/Lyy	mf y	8D/Lyy	.	mf y	8D\	wśród	8B\	wśród	.	8g/	wśród	.	8B'</Lyy	mf y	8g'</Lyy	mf y	16ryy	mf y	8D\Lyy|	.	2.r	.	8D/Lyy 8dyy	mf y	8D'>\Lyy 8Gyy	mf y	4.ryy	8g'>\Lyy 8byy	mf y	8b'>\Lyy 8ggyy	mf y	8gg'>\Lyy	mf y
.	.	.	.	.	.	.	.	.	.	.	.	.	.	.	.	.	16dd\LLyy	.	.	.	.	.	.	.	.	.	.	.	.	.	.	.	.
8D/yy	.	8D/yy	.	.	8D\	da-	8A\	da-	.	8f#/	da-	.	8A'</yy	.	8f#'<yy/	.	16ddd\yy	.	8D\yy|	.	.	.	8D/yy 8dyy	.	8D'>\yy 8Ayy	.	.	8f#'>\yy 8ayy	.	8a'>\yy 8ff#yy	.	8ff#'>\yy	.
.	.	.	.	.	.	.	.	.	.	.	.	.	.	.	.	.	16dd\yy	.	.	.	.	.	.	.	.	.	.	.	.	.	.	.	.
8D/yy	.	8D/yy	.	.	8D\	-rów	8G#X\	-rów	.	8e#X/	-rów	.	8G#X'</Jyy	.	8e#X'</Jyy	.	16ddd\yy	.	8D\yy|	.	.	.	8D/Jyy 8dyy	.	8D'>\Jyy 8Byy	.	.	8e#X'>\Jyy 8g#yy	.	8g#X'>\Jyy 8ee#Xyy	.	8ee#X'>\Jyy	.
.	.	.	.	.	.	.	.	.	.	.	.	.	.	.	.	.	16dd\JJyy	.	.	.	.	.	.	.	.	.	.	.	.	.	.	.	.
*	*	*	*	*	*	*	*	*	*	*	*	*	*	*	*	*	*	*	*	*	*	*	*Xtremolo	*	*	*	*	*	*	*	*	*	*
8D/yy	.	8D/yy	.	.	4D\	szczę-	4A\	szczę-	.	4f#/	szczę-	.	8A/yy	.	8f#/yy	.	16ddd\LLyy	.	8D\yy|	.	.	.	4D^</yy 4dyy	.	(>4D\yy 4Ayy	.	8a/yy	4f#\yy	.	(>4ayy\ 4ff#yy	.	(4ff#\yy	>
.	.	.	.	.	.	.	.	.	.	.	.	.	.	.	.	.	16dd\yy	.	.	.	.	.	.	.	.	.	.	.	.	.	.	.	.
8D/yy	.	8D/yy	.	.	.	.	.	.	.	.	.	.	16c#\LLyy	.	16c#/LLyy	.	16cc#\yy	.	8D\yy|	.	.	.	.	.	.	.	16cc#/LLyy	.	.	.	.	.	.
.	.	.	.	.	.	.	.	.	.	.	.	.	16d\yy	.	16d/yy	.	16dd\yy	.	.	.	.	.	.	.	.	.	16dd/yy	.	.	.	.	.	.
8D/Jyy	.	8D/J	.	.	8D\	-ścia	8D/	-ścia	.	8d/	-ścia	.	16A\yy	.	16A/yy	.	16ee\yy	.	8D\Jyy|	.	.	.	8D/yy 8dyy	.	8D\)yy 8dyy	.	16a/yy	8ryy	.	8f#\)yy 8ddyy	.	8dd\)yy	]
.	.	.	.	.	.	.	.	.	.	.	.	.	16d\JJyy	.	16d/JJyy	.	[>16dd\JJyy	.	.	.	.	.	.	.	.	.	16dd/JJyy	.	.	.	.	.	.
=12	=12	=12	=12	=12	=12	=12	=12	=12	=12	=12	=12	=12	=12	=12	=12	=12	=12	=12	=12	=12	=12	=12	=12	=12	=12	=12	=12	=12	=12	=12	=12	=12	=12
*	*	*	*	*	*	*	*	*	*	*	*	*	*	*	*	*	*	*	*	*	*	*	*tremolo	*	*	*	*	*	*	*	*	*	*
8D/Lyy	.	8D/Lyy	.	.	8D\	da-	8G/	da-	.	8b\	da-	.	8g'>\Lyy	.	8b/Lyy	.	16dd\LL]yy	.	8D\Lyy	.	2.r	.	8D/Lyy 8dyy	.	8D'>\Lyy 8Gyy	.	8gg/Lyy	8b\Lyy	.	8g'>\Lyy 8bbyy	.	8bb'>\Lyy	.
.	.	.	.	.	.	.	.	.	.	.	.	.	.	.	.	.	16dd\yy	.	.	.	.	.	.	.	.	.	.	.	.	.	.	.	.
8D/yy	.	8D/yy	.	.	8D\	-rów	8F#/	-rów	.	8a\	-rów	.	8f#'>\yy	.	8a/yy	.	16ddd\yy	.	8D\yy	.	.	.	8D/yy 8dyy	.	8D'>\yy 8Ayy	.	8ff#/yy	8a\yy	.	8f#'>\yy 8aayy	.	8aa'>\yy	.
.	.	.	.	.	.	.	.	.	.	.	.	.	.	.	.	.	16dd\yy	.	.	.	.	.	.	.	.	.	.	.	.	.	.	.	.
8D/yy	.	8D/yy	.	.	8D\	mi-	8E#X/	mi-	.	8g#X\	mi-	.	8e#X'>\Jyy	.	8g#X/Jyy	.	16ddd\yy	.	8D\yy	.	.	.	8D/yy 8dyy	.	8D'>\Jyy 8Byy	.	8ee#X/Jyy	8g#\Jyy	.	8e#X'>\Jyy 8gg#Xyy	.	8gg#X'>\Jyy	.
.	.	.	.	.	.	.	.	.	.	.	.	.	.	.	.	.	16dd\JJyy	.	.	.	.	.	.	.	.	.	.	.	.	.	.	.	.
8D/yy	.	8D/yy	.	.	4D\	-ło-	8F#/L	-ło-	.	4a\	-ło-	.	8f#\yy	.	8a'</yy	.	16ddd\LLyy	.	8D\yy	.	.	.	8D/yy 8dyy	.	(>4D\yy 4Ayy	.	8ff#/yy	4a\yy	.	(>4f#\yy 4aayy	.	(>4aa\yy	>
.	.	.	.	.	.	.	.	.	.	.	.	.	.	.	.	.	16dd\yy	.	.	.	.	.	.	.	.	.	.	.	.	.	.	.	.
8D/y	.	8D/yy	.	.	.	.	8A/J	.	.	.	.	.	16c#\LLyy	.	16c#/LLyy	.	16cc#\yy	.	8D\yy	.	.	.	8D/yy 8dyy	.	.	.	16cc#/LLyy	.	.	.	.	.	.
.	.	.	.	.	.	.	.	.	.	.	.	.	16d\yy	.	16d/yy	.	16dd\yy	.	.	.	.	.	.	.	.	.	16dd/yy	.	.	.	.	.	.
!	!	!	!	!	!	!	!	!	!	!	!	!	!	!	!	!	!LO:TX:a:t=piu	!	!	!	!	!	!	!	!	!	!	!	!	!	!	!	!
8D/Jyy	.	8D/Jyy	.	.	8D\	-ści	8d\	-ści	.	8d/	-ści	.	16A\yy	.	16A/yy	.	16ee\yy	.	8D\Jyy	.	.	.	8D/Jyy 8dyy	.	8D\)yy 8dyy	.	16a/yy	8ryy	.	8dd\)yy	.	8dd\)yy	]
.	.	.	.	.	.	.	.	.	.	.	.	.	16d\JJyy	.	16d/JJyy	.	16dd\JJyy	.	.	.	.	.	.	.	.	.	16dd/JJyy	.	.	.	.	.	.
*	*	*	*	*	*	*	*	*	*	*	*	*	*	*	*	*	*	*	*	*	*	*	*	*	*	*	*v	*v	*	*	*	*	*
=13	=13	=13	=13	=13	=13	=13	=13	=13	=13	=13	=13	=13	=13	=13	=13	=13	=13	=13	=13	=13	=13	=13	=13	=13	=13	=13	=13	=13	=13	=13	=13	=13
*	*	*	*	*	*	*	*	*	*	*	*	*	*	*	*	*	*	*	*	*	*	*	*^	*	*^	*	*	*	*	*	*	*
*	*	*	*	*	*	*	*	*	*	*	*	*	*tremolo	*	*	*	*	*	*	*	*	*	*	*tremolo	*	*tremolo	*tremolo	*	*tremolo	*	*tremolo	*	*tremolo	*
!	!	!	!	!	!	!	!	!	!	!	!	!	!	!	!	!	!LO:TX:t=P:problem:f[orte]=f.	!LO:DY:a	!	!	!	!	!	!	!	!	!	!	!	!	!	!	!	!
8GG#X/Lyy	.	8GG#X/Lyy	.	.	8G#X\	żyj	8B\	żyj	.	8e/	żyj	.	8d\Lyy 8eyy	.	16B/LLyy	.	16b\LLyy	f	8D\Lyy	.	2.r	.	8e/Lyy	8d\Lyy	.	8G#X\Lyy 8Byy	4.ryy	.	8b\Lyy 8ddyy	.	8dd\Lyy 8eeyy	.	8bb\Lyy	.
.	.	.	.	.	.	.	.	.	.	.	.	.	.	.	16e/yy	.	16ee\yy	.	.	.	.	.	.	.	.	.	.	.	.	.	.	.	.	.
8GG#/yy	.	8GG#/yy	.	.	8G#\	dłu-	8B\	dłu-	.	8e/	dłu-	.	8d\yy 8eyy	.	16d/yy	.	16dd\yy	.	8D\yy	.	.	.	8e/yy	8d\yy	.	8G#\yy 8Byy	.	.	8b\yy 8ddyy	.	8dd\yy 8eeyy	.	8bb\yy	.
.	.	.	.	.	.	.	.	.	.	.	.	.	.	.	16e/yy	.	16ee\yy	.	.	.	.	.	.	.	.	.	.	.	.	.	.	.	.	.
8GG#/Jyy	.	8GG#/Jyy	.	.	8G#\	-go	8B\	-go	.	8e/	-go	.	8d\Jyy 8eyy	.	16b/yy	.	16b\yy	.	8D\yy	.	.	.	8e/Jyy	8d\Jyy	.	8G#\Jyy 8Byy	.	.	8b\Jyy 8ddyy	.	8dd\Jyy 8eeyy	.	8bb\Jyy	.
.	.	.	.	.	.	.	.	.	.	.	.	.	.	.	16e/JJyy	.	16ee\JJyy	.	.	.	.	.	.	.	.	.	.	.	.	.	.	.	.	.
*	*	*	*	*	*	*	*	*	*	*	*	*	*	*	*	*	*	*	*	*	*	*	*	*	*	*	*	*	*	*	*	*	*Xtremolo	*
8AA/Lyy	.	8AA/Lyy	.	.	4A\	mło-	4A\	mło-	.	4f#/	mło-	.	8d\Lyy 8f#yy	.	16a\LLyy	.	16a\LLyy	.	8D\yy	.	.	.	8f#/Lyy	8d\Lyy	.	8A/Lyy	8A\Lyy	.	8a\Lyy 8ff#yy	.	8dd\Lyy 8ff#yy	.	(>16aa\LLyy	.
.	.	.	.	.	.	.	.	.	.	.	.	.	.	.	16aa\yy	.	16aa\yy	.	.	.	.	.	.	.	.	.	.	.	.	.	.	.	16aaa\)yy	.
8AA/yy	.	8AA/yy	.	.	.	.	.	.	.	.	.	.	8d\yy 8f#yy	.	16gg\yy	.	16gg\yy	.	8D\yy	.	.	.	8f#/yy	8d\yy	.	8A/yy	8A\yy	.	8a\yy 8ff#yy	.	8dd\yy 8ff#yy	.	16ggg'>\yy	.
.	.	.	.	.	.	.	.	.	.	.	.	.	.	.	16ff#\yy	.	16ff#\yy	.	.	.	.	.	.	.	.	.	.	.	.	.	.	.	16fff#'>\yy	.
8AA/Jyy	.	8AA/Jyy	.	.	8A\	-da	8A\	-da	.	8f#/	-da	.	8d\Jyy 8f#yy	.	16ee\yy	.	16ee\yy	.	8D\Jyy	.	.	.	8f#/Jyy	8d\Jyy	.	8A/Jyy	8A\Jyy	.	8a\Jyy 8ff#yy	.	8dd\Jyy 8ff#yy	.	16eee'>\yy	.
.	.	.	.	.	.	.	.	.	.	.	.	.	.	.	16dd\JJyy	.	16dd\JJyy	.	.	.	.	.	.	.	.	.	.	.	.	.	.	.	16ddd'>\JJyy	.
*	*	*	*	*	*	*	*	*	*	*	*	*	*Xtremolo	*	*	*	*	*	*Xtremolo	*	*	*	*Xtremolo	*Xtremolo	*	*Xtremolo	*Xtremolo	*	*Xtremolo	*	*Xtremolo	*	*	*
*	*	*	*	*	*	*	*	*	*	*	*	*	*	*	*	*	*	*	*	*	*	*	*v	*v	*	*	*	*	*	*	*	*	*	*
*	*	*	*	*	*	*	*	*	*	*	*	*	*	*	*	*	*	*	*	*	*	*	*	*	*v	*v	*	*	*	*	*	*	*
!!LO:PB:g=original
=14	=14	=14	=14	=14	=14	=14	=14	=14	=14	=14	=14	=14	=14	=14	=14	=14	=14	=14	=14	=14	=14	=14	=14	=14	=14	=14	=14	=14	=14	=14	=14	=14
*	*	*	*	*	*	*	*	*	*	*	*	*	*	*	*	*	*	*	*	*	*^	*	*	*	*	*	*	*	*	*	*	*
*	*	*	*	*	*	*	*	*	*	*	*	*	*tremolo	*	*	*	*	*	*	*	*	*	*	*	*	*	*	*	*	*	*	*	*
8AA/Lyy	.	8AA/Lyy	.	.	4.A\	pa-	4.c#\	pa-	.	4.a\	pa-	.	8c#\Lyy 8eyy	.	16cc#/LLyy	.	16cc#/LLyyy	.	4.AATT>/yy	.	4ryy	4.ryy	.	(>4.A\yy 4.eyy	.	(>4.AA\yy 4.c#yy	.	(<4.g\yy (>4.eeyy	.	(<4.cc#\yy (>4.eeyy	.	(>16ccc#\LLyy	.
.	.	.	.	.	.	.	.	.	.	.	.	.	.	.	16b/yy	.	16b/yy	.	.	.	.	.	.	.	.	.	.	.	.	.	.	16bb\)yy	.
8AA/yy	.	8AA/yy	.	.	.	.	.	.	.	.	.	.	8c#\yy 8eyy	.	16a/yy	.	16a/yy	.	.	.	.	.	.	.	.	.	.	.	.	.	.	16aa'>\yy	.
.	.	.	.	.	.	.	.	.	.	.	.	.	.	.	16g/yy	.	16g/yy	.	.	.	.	.	.	.	.	.	.	.	.	.	.	16gg'>\yy	.
8AA/Jyy	.	8AA/Jyy	.	.	.	.	.	.	.	.	.	.	8c#\Jyy 8eyy	.	16f#/yy	.	16f#/yy	.	.	.	8ryy	.	.	.	.	.	.	.	.	.	.	16ff#'>\yy	.
.	.	.	.	.	.	.	.	.	.	.	.	.	.	.	16e/JJyy	.	16e/JJyy	.	.	.	.	.	.	.	.	.	.	.	.	.	.	16ee'>\JJyy	.
*	*	*	*	*	*	*	*	*	*	*	*	*	*Xtremolo	*	*	*	*	*	*	*	*	*	*	*	*	*	*	*	*	*	*	*	*
!!mixed beam:problem
!	!	!	!	!	!	!	!	!	!	!	!	!	!LO:TX:t=P:problem:mixed beam	!	!	!	!LO:TX:t=P:problem:mixed beam	!	!	!	!	!	!	!	!	!	!	!	!	!	!	!	!
8D\Lyy	.	8D\Lyy	.	.	4D\	-ro	4d\	-ro	.	4f#\	-ro	.	8d\Lyy	.	8d/yy	.	16d/LLyy	.	8D\Lyy	.	8d/Lyy	8d\Lyy	.	8F#\)yy 8dyy	.	8D\)yy 8dyy	.	8f#\)yy 8dd)yy	.	8dd\L)yy	.	8dd'\yy)	.
.	.	.	.	.	.	.	.	.	.	.	.	.	.	.	.	.	16dd\yy	.	.	.	.	.	.	.	.	.	.	.	.	.	.	.	.
8D\yy	.	8D\yy	.	.	.	.	.	.	.	.	.	.	8D/yy	.	16c#/LLyy	.	16cc#\yy	.	8D\yy	.	8d/yy	8d\yy	.	8ryy	.	8ryy	.	8ryy	.	16cc#\Lyy	.	8ryy	.
.	.	.	.	.	.	.	.	.	.	.	.	.	.	.	16d/yy	.	16dd\yy	.	.	.	.	.	.	.	.	.	.	.	.	16dd\yy	.	.	.
8D\Jyy	.	8D\Jyy	.	.	8r	.	8r	.	.	8r	.	.	8D/Jyy	.	16e/yy	.	16ee\yy	.	8D\Jyy	.	8d/Jyy	8d\Jyy	.	8ryy	.	8ryy	.	8ryy	.	16ee\yy	.	8ryy	.
.	.	.	.	.	.	.	.	.	.	.	.	.	.	.	16d/JJyy	.	16dd\JJyy	.	.	.	.	.	.	.	.	.	.	.	.	16dd\JJyy	.	.	.
=15	=15	=15	=15	=15	=15	=15	=15	=15	=15	=15	=15	=15	=15	=15	=15	=15	=15	=15	=15	=15	=15	=15	=15	=15	=15	=15	=15	=15	=15	=15	=15	=15	=15
*	*	*	*	*	*	*	*	*	*	*	*	*	*	*	*	*	*	*	*	*	*	*	*	*	*	*	*	*^	*	*	*	*	*
*	*	*	*	*	*	*	*	*	*	*	*	*	*	*	*	*	*	*	*2\right	*	*	*	*	*	*	*	*	*	*	*	*	*	*	*
*2\right	*	*2\right	*	*	*	*	*	*	*	*	*	*	*	*	*	*	*	*	*tremolo	*	*tremolo	*tremolo	*	*tremolo	*	*	*	*	*	*	*	*	*	*
!!mixed beam:problem
!LO:TX:t=P:problem:f[orte]=f.	!	!LO:TX:t=P:problem:f[orte]=f.	!	!	!	!	!	!	!	!	!	!	!LO:TX:t=P:problem:f=forte	!	!	!	!LO:TX:b:t=piu:rj	!	!	!	!	!LO:TX:t=P:problem:f[orte]=f.	!	!LO:TX:t=P:problem:f[orte]=f.	!LO:TX:t=P:problem:f[orte]=f.	!LO:TX:t=P:problem:f[orte]=f.	!LO:TX:t=P:problem:f[orte]=f.	!	!LO:TX:t=P:problem:f[orte]=f.	!	!LO:TX:t=P:problem:f[orte]=f.	!	!LO:TX:t=P:problem:f[orte]=f.	!
!LO:TX:b:t=piu:rj	!	!LO:TX:b:t=piu:rj	!	!	!	!	!LO:TX:t=P:problem:pp[ianissimo]=pp.	!	!LO:DY:b	!LO:TX:t=P:problem:pp[ianissimo]=pp.	!	!	!LO:TX:b:t=piu:rj	!	!LO:TX:b:t=piu:rj	!	!LO:TX:t=P:problem:mixed beam	!	!	!	!LO:TX:b:t=piu:rj	!	!	!LO:TX:b:t=piu:rj	!	!LO:TX:b:t=piu:rj	!	!LO:TX:b:t=piu:rj	!	!	!LO:TX:b:t=piu:rj	!	!LO:TX:b:t=piu:rj	!
8D\Lyy	f y	8D\Lyy	.	f y	8D\	wśród	8d\	wśród	pp	8d/	wśród	pp	8B/Lyy	f y	8g'</Lyy	f y	16d/LLyy	f y	8D\Lyy	.	8d/Lyy	8d\Lyy	f y	8D/Lyy 8dyy	f y	8D'>\Lyy 8Gyy	f y	8g'>\Lyy 8byy	4.ryy	f y	8b'>\Lyy 8ggyy	f y	8gg'>\Lyy	f y
.	.	.	.	.	.	.	.	.	.	.	.	.	.	.	.	.	16dd\yy	.	.	.	.	.	.	.	.	.	.	.	.	.	.	.	.	.
8D/yy	.	8D/yy	.	.	8D\	da-	8d\	da-	.	8d/	da-	.	8A/yy	.	8f#'</yy	.	16ddd\yy	.	8D\yy	.	8d/yy	8d\yy	.	8D/yy 8dyy	.	8D'>\yy 8Ayy	.	8f#'>\yy 8ayy	.	.	8a'>\yy 8ff#yy	.	8ff#'>\yy	.
.	.	.	.	.	.	.	.	.	.	.	.	.	.	.	.	.	16dd\yy	.	.	.	.	.	.	.	.	.	.	.	.	.	.	.	.	.
8D/yy	.	8D/yy	.	.	8D\	-rów	8d\	-rów	.	8d/	-rów	.	8G#X/Jyy	.	8e#X'</Jyy	.	16ddd\yy	.	8D\yy	.	8d/Jyy	8d\Jyy	.	8D/Jyy 8dyy	.	8D'>\Jyy 8Byy	.	8e#X'>\Jyy 8g#yy	.	.	8g#X'>\Jyy 8ee#Xyy	.	8ee#X'>\Jyy	.
.	.	.	.	.	.	.	.	.	.	.	.	.	.	.	.	.	16dd\JJyy	.	.	.	.	.	.	.	.	.	.	.	.	.	.	.	.	.
*	*	*	*	*	*	*	*	*	*	*	*	*	*	*	*	*	*	*	*	*	*Xtremolo	*Xtremolo	*	*Xtremolo	*	*	*	*	*	*	*	*	*	*
8D/yy	.	8D/yy	.	.	4D\	szczęś-	4d\	szczęś-	.	4d/	szczęś-	.	8A/yy	.	16f#/LLyy	.	16ddd\LLyy	.	8D\yy	.	4d^>/yy	4d\yy	.	4D^</yy 4dyy	.	(>4D\yy 4Ayy	.	8a/yy	4f#\yy	.	(4a\yy 4ff#yy	>	(>4ff#\yy	>
.	.	.	.	.	.	.	.	.	.	.	.	.	.	.	16d/yy	.	16dd\yy	.	.	.	.	.	.	.	.	.	.	.	.	.	.	.	.	.
8D/yy	.	8D/yy	.	.	.	.	.	.	.	.	.	.	16c#\LLyy	.	16c#/yy	.	16cc#\yy	.	8D\yy	.	.	.	.	.	.	.	.	16cc#/LLyy	.	.	.	.	.	.
.	.	.	.	.	.	.	.	.	.	.	.	.	16d\yy	.	16d/yy	.	16dd\yy	.	.	.	.	.	.	.	.	.	.	16dd/yy	.	.	.	.	.	.
8D/Jyy	.	8D/Jyy	.	.	8D\	-cia	8D/	-cia	.	8d/	-cia	.	16A\yy	.	16A/yy	.	16a\yy	.	8D\Jyy	.	8d/yy	8d\yy	.	8D/yy 8dyy	.	8D\)yy 8dyy	.	16a/yy	8ryy	.	8dd\)yy	]	8dd\)yy	]
.	.	.	.	.	.	.	.	.	.	.	.	.	16d\JJyy	.	16d/JJyy	.	16dd\JJyy	.	.	.	.	.	.	.	.	.	.	16dd/JJyy	.	.	.	.	.	.
=16	=16	=16	=16	=16	=16	=16	=16	=16	=16	=16	=16	=16	=16	=16	=16	=16	=16	=16	=16	=16	=16	=16	=16	=16	=16	=16	=16	=16	=16	=16	=16	=16	=16	=16
*	*	*	*	*	*	*	*	*	*	*	*	*	*	*	*	*	*	*	*	*	*tremolo	*tremolo	*	*tremolo	*	*	*	*	*	*	*	*	*	*
!!mixed beam:problem
!	!	!LO:TX:a:t=Cello.:rj	!	!	!	!	!	!	!	!	!	!	!	!	!	!	!LO:TX:t=P:problem:mixed beam	!	!	!	!	!	!	!	!	!	!	!	!	!	!	!	!	!
8D\Lyy	.	8D\Lyy	.	.	8D\	da-	8B\	da-	.	8d/	da-	.	8g\Lyy	.	8d/Lyy 8byy	.	16d/LLyy	.	8D\Lyy	.	8d/Lyy	8d\Lyy	.	8D/Lyy 8dyy	.	8D\Lyy 8Gyy	.	8b\Lyy 8ggyy	4.ryy	.	8g\Lyy 8bbyy	.	8bb'>\Lyy	.
.	.	.	.	.	.	.	.	.	.	.	.	.	.	.	.	.	16dd\yy	.	.	.	.	.	.	.	.	.	.	.	.	.	.	.	.	.
8D\yy	.	8D\yy	.	.	8D\	-rów	8A\	-rów	.	8d/ 8f#	-rów	.	8f#\yy	.	8d/yy 8ayy	.	16ddd\yy	.	8D\yy	.	8d/yy	8d\yy	.	8D/yy 8dyy	.	8D\yy 8Ayy	.	8a\yy 8ff#yy	.	.	8f#\yy 8aayy	.	8aa'>\yy	.
.	.	.	.	.	.	.	.	.	.	.	.	.	.	.	.	.	16dd\yy	.	.	.	.	.	.	.	.	.	.	.	.	.	.	.	.	.
8D\yy	.	8D\yy	.	.	8D\	mi-	8G#X\	mi-	.	8d/ 8e#X	mi-	.	8e#X\Jyy	.	8g#X/Jyy	.	16ddd\yy	.	8D\yy	.	8d/Jyy	8d\Jyy	.	8D/yy 8dyy	.	8D\Jyy yy8B	.	8g#\Jyy 8ee#Xyy	.	.	8e#X\Jyy 8gg#Xyy	.	8gg#X'>\Jyy	.
.	.	.	.	.	.	.	.	.	.	.	.	.	.	.	.	.	16dd\JJyy	.	.	.	.	.	.	.	.	.	.	.	.	.	.	.	.	.
*	*	*	*	*	*	*	*	*	*	*	*	*	*	*	*	*	*	*	*	*	*Xtremolo	*Xtremolo	*	*	*	*tremolo	*	*	*	*	*	*	*	*
8D\yy	.	8D\yy	.	.	8D\L	-łoś-	4A\	-łoś-	.	4d/ 4f#	-łoś-	.	8f#\yy	.	16a/LLyy	.	16ddd\LLyy	.	8D\yy	.	4d/yy	4d\yy	.	8D/yy 8dyy	.	8D\Lyy 8Ayy	.	8ff#/yy	4a\yy	.	4f#\yy 4aayy	.	4aa\yy	.
.	.	.	.	.	.	.	.	.	.	.	.	.	.	.	16d/yy	.	16dd\yy	.	.	.	.	.	.	.	.	.	.	.	.	.	.	.	.	.
8D\yy	.	8D\yy	.	.	8F#\J	.	.	.	.	.	.	.	16c#\LLyy	.	16c#/yy	.	16cc#\yy	.	8D\yy	.	.	.	.	8D/yy 8dyy	.	8D\yy 8Ayy	.	16cc#/LLyy	.	.	.	.	.	.
.	.	.	.	.	.	.	.	.	.	.	.	.	16d\yy	.	16d/yy	.	16dd\yy	.	.	.	.	.	.	.	.	.	.	16dd/yy	.	.	.	.	.	.
8D\Jyy	.	8D\Jyy	.	.	8A\	-ci	8A\	-ci	.	8d/ 8f#	-ci	.	16e#\yy	.	16e/yy	.	16ee\yy	.	8D\Jyy	.	8ryy	8ryy	.	8D/Jyy 8dyy	.	8D\Jyy 8Ayy	.	16a/yy	8ryy	.	8ryy	.	8ryy	.
.	.	.	.	.	.	.	.	.	.	.	.	.	16d\JJyy	.	16d/JJyy	.	16dd\JJyy	.	.	.	.	.	.	.	.	.	.	16dd/JJyy	.	.	.	.	.	.
*	*	*	*	*	*	*	*	*	*	*	*	*	*	*	*	*	*	*	*	*	*v	*v	*	*	*	*	*	*v	*v	*	*	*	*	*
=17	=17	=17	=17	=17	=17	=17	=17	=17	=17	=17	=17	=17	=17	=17	=17	=17	=17	=17	=17	=17	=17	=17	=17	=17	=17	=17	=17	=17	=17	=17	=17	=17
*	*	*	*	*	*	*	*	*	*	*	*	*	*	*	*	*	*	*	*	*	*	*	*^	*	*^	*	*	*	*^	*	*	*
*	*	*	*	*	*	*	*	*	*	*	*	*	*tremolo	*	*	*	*	*	*	*	*	*	*	*tremolo	*	*	*	*	*tremolo	*	*tremolo	*tremolo	*	*tremolo	*
8GG#X/Lyy	.	8GG#X/Lyy	.	.	8G#X\	żyj	8B\	żyj	.	8d/ 8e	żyj	.	8G#X/Lyy	.	16b\LLyy	.	16b\LLyy	.	8D\Lyy	.	2.ryy	.	8e/Lyy	8d\Lyy	.	8G#X\Lyy 8Byy	4.ryy	.	8b\Lyy 8ddyy	.	8ee/Lyy	8dd\Lyy	.	8bb\Lyy	.
.	.	.	.	.	.	.	.	.	.	.	.	.	.	.	16ee\yy	.	16ee\yy	.	.	.	.	.	.	.	.	.	.	.	.	.	.	.	.	.	.
8GG#/yy	.	8GG#/yy	.	.	8G#\	dłu-	8B\	dłu-	.	8d/ 8e	dłu-	.	8G#/yy	.	16dd\yy	.	16dd\yy	.	8D\yy	.	.	.	8e/yy	8d\yy	.	8G#\yy 8Byy	.	.	8b\yy 8ddyy	.	8ee/yy	8dd\yy	.	8bb\yy	.
.	.	.	.	.	.	.	.	.	.	.	.	.	.	.	16ee\yy	.	16ee\yy	.	.	.	.	.	.	.	.	.	.	.	.	.	.	.	.	.	.
8GG#/Jyy	.	8GG#/Jyy	.	.	8G#\	-go	8B\	-go	.	8d/ 8e	-go	.	8G#/Jyy	.	16b\yy	.	16b\yy	.	8D\yy	.	.	.	8e/Jyy	8d\Jyy	.	8G#\Jyy 8Byy	.	.	8b\Jyy 8ddyy	.	8ee/Jyy	8dd\Jyy	.	8bb\Jy	.
.	.	.	.	.	.	.	.	.	.	.	.	.	.	.	16ee\JJyy	.	16ee\JJyy	.	.	.	.	.	.	.	.	.	.	.	.	.	.	.	.	.	.
*	*	*	*	*	*	*	*	*	*	*	*	*	*	*	*	*	*	*	*	*	*	*	*	*	*	*	*tremolo	*	*	*	*	*	*	*Xtremolo	*
8AA/Lyy	.	8AA/Lyy	.	.	4A\	mło-	4A\	mło-	.	4d/ 4f#	mło-	.	8A/Lyy	.	16a\LLyy	.	16a\LLyy	.	8D\yy	.	.	.	8f#/Lyy	8d\Lyy	.	8A/Lyy	8A\Lyy	.	8a\Lyy 8ff#yy	.	8ff#/Lyy	8dd\Lyy	.	16aa\LLyy	.
.	.	.	.	.	.	.	.	.	.	.	.	.	.	.	16aa\yy	.	16aa\yy	.	.	.	.	.	.	.	.	.	.	.	.	.	.	.	.	16aaa\yy	.
8AA/yy	.	8AA/yy	.	.	.	.	.	.	.	.	.	.	8A/yy	.	16gg\yy	.	16gg\yy	.	8D\yy	.	.	.	8f#/yy	8d\yy	.	8A/yy	8A\yy	.	8a\yy 8ff#yy	.	8ff#/yy	8dd\yy	.	16ggg\yy	.
.	.	.	.	.	.	.	.	.	.	.	.	.	.	.	16ff#\yy	.	16ff#\yy	.	.	.	.	.	.	.	.	.	.	.	.	.	.	.	.	16fff#\yy	.
8AA/Jyy	.	8AA/Jyy	.	.	8A\	-da	8d\	-da	.	8d/ 8f#	-da	.	8A/Jyy	.	16ee\yy	.	16ee\yy	.	8D\Jyy	.	.	.	8f#/Jyy	8d\Jyy	.	8A/Jyy	8A\Jyy	.	8a\Jyy 8ff#yy	.	8ff#/Jyy	8dd\Jyy	.	16eee\yy	.
!	!	!	!	!	!	!	!	!	!	!	!	!	!	!	!	!	!	!	!	!	!	!	!	!	!	!	!	!	!	!	!	!	!	!LO:TX:a:t=B	!
.	.	.	.	.	.	.	.	.	.	.	.	.	.	.	16dd\JJyy	.	16dd\JJyy	.	.	.	.	.	.	.	.	.	.	.	.	.	.	.	.	16ddd\JJyy	.
*Xtremolo	*	*Xtremolo	*	*	*	*	*	*	*	*	*	*	*Xtremolo	*	*	*	*	*	*Xtremolo	*	*	*	*Xtremolo	*Xtremolo	*	*Xtremolo	*Xtremolo	*	*Xtremolo	*	*Xtremolo	*Xtremolo	*	*	*
*	*	*	*	*	*	*	*	*	*	*	*	*	*	*	*	*	*	*	*	*	*	*	*v	*v	*	*	*	*	*	*	*v	*v	*	*	*
*	*	*	*	*	*	*	*	*	*	*	*	*	*	*	*	*	*	*	*	*	*	*	*	*	*v	*v	*	*	*	*	*	*	*
=18	=18	=18	=18	=18	=18	=18	=18	=18	=18	=18	=18	=18	=18	=18	=18	=18	=18	=18	=18	=18	=18	=18	=18	=18	=18	=18	=18	=18	=18	=18	=18	=18
*	*	*	*	*	*^	*	*	*	*	*^	*	*	*	*	*	*	*	*	*	*	*	*	*	*	*	*	*	*	*	*	*	*
*tremolo	*	*tremolo	*	*	*	*	*	*	*	*	*	*	*	*	*tremolo	*	*	*	*	*	*	*	*	*	*	*	*	*	*	*	*	*	*	*
!	!	!	!	!	!	!	!	!	!	!	!	!	!	!	!LO:TX:t=P:problem:pp[ianissimo]=pp.	!	!LO:TX:t=P:problem:pp[ianissimo]=pp.	!	!LO:TX:t=P:problem:pp[ianissimo]=pp.	!	!LO:TX:t=P:problem:pp[ianissimo]=pp.	!	!	!	!LO:TX:t=P:problem:pp[ianissimo]=pp.	!LO:TX:t=P:problem:pp[ianissimo]=pp.	!LO:TX:t=P:problem:pp[ianissimo]=pp.	!	!LO:TX:t=P:problem:pp[ianissimo]=pp.	!	!LO:TX:t=P:problem:pp[ianissimo]=pp.	!	!LO:TX:t=P:problem:pp[ianissimo]=pp.	!
8AA/L	.	8AA/L	.	.	4.AA/ 4.A	4.ryy	pa-	4.c#\	pa-	.	4.a/	4.e\	pa-	.	8A\L 8e	pp	16cc#/LL	pp	16cc#/LL	pp	(<4.AATT>/	pp	2.r	.	(<4.A\ (>4.e	pp	(<4.AA\ (>4.c#	pp	(<4.g\ (>4.ee	pp	(<4.cc#\ (>4.ee	pp	16ccc#\LL	pp
.	.	.	.	.	.	.	.	.	.	.	.	.	.	.	.	.	16b/	.	16b/	.	.	.	.	.	.	.	.	.	.	.	.	.	16bb\	.
8AA/	.	8AA/	.	.	.	.	.	.	.	.	.	.	.	.	8A\ 8e	.	16a/	.	16a/	.	.	.	.	.	.	.	.	.	.	.	.	.	16aa\	.
.	.	.	.	.	.	.	.	.	.	.	.	.	.	.	.	.	16g/	.	16g/	.	.	.	.	.	.	.	.	.	.	.	.	.	16gg\	.
8AA/J	.	8AA/J	.	.	.	.	.	.	.	.	.	.	.	.	8A\J 8e	.	16f#/	.	16f#/	.	.	.	.	.	.	.	.	.	.	.	.	.	16ff#\	.
.	.	.	.	.	.	.	.	.	.	.	.	.	.	.	.	.	16e/JJ	.	16e/JJ	.	.	.	.	.	.	.	.	.	.	.	.	.	16ee\JJ	.
*Xtremolo	*	*Xtremolo	*	*	*	*	*	*	*	*	*	*	*	*	*Xtremolo	*	*	*	*	*	*	*	*	*	*	*	*	*	*	*	*	*	*	*
!	!	!	!	!	!	!	!	!	!	!	!LO:TX:a:t=(&colon; w głębi sceny &colon;)	!	!	!	!	!	!	!	!	!	!	!	!	!	!	!	!	!	!	!	!	!	!	!
8D\	.	8D\	.	.	8D/	8D\	-ro.	8d\	-ro.	.	8d/	8d\	-ro.	.	8d\	.	8d/	.	8d/	.	8D/)	.	.	.	8F#/) 8d)	.	8D\) 8d)	.	8f#\) 8dd)	.	8dd\))	.	8dd\	.
8r	.	8r	.	.	8r	8r	.	8r	.	.	8r	4ryy	.	.	8r	.	8r	.	8r	.	8r	.	.	.	8r	.	8r	.	8r	.	8r	.	8r	.
!	!	!LO:TX:t=P:problem:pp[ianissimo]=pp.	!	!	!	!	!	!	!	!	!	!	!	!	!	!	!	!	!	!	!	!	!	!	!	!	!	!	!	!	!	!	!	!
8A\	.	8A\	.	pp	8ryy	8A\	Żyj	8c#\	Żyj	.	8e/	.	Żyj	.	8A/	.	8c#/ 8e	.	8c#/ 8e	.	8ryy	.	.	.	8A\ 8a	.	8r	.	8cc#\ 8ee	.	8r	.	8r	.
*	*	*	*	*	*v	*v	*	*	*	*	*v	*v	*	*	*	*	*	*	*	*	*	*	*	*	*	*	*	*	*	*	*	*	*	*
=19	=19	=19	=19	=19	=19	=19	=19	=19	=19	=19	=19	=19	=19	=19	=19	=19	=19	=19	=19	=19	=19	=19	=19	=19	=19	=19	=19	=19	=19	=19	=19	=19
*	*	*	*	*	*	*	*	*	*	*	*	*	*	*	*	*	*	*	*	*	*	*	*^	*	*	*	*	*	*	*	*^	*
4A\	.	4A\	.	.	4A\	dłu-	4c#\	dłu-	.	4e/	dłu-	.	4A/	.	4c#/ 4e	.	4c#/ 4e	.	2.r	.	2.r	.	[<4.A\ [>4.a	4.ryy	.	2.r	.	4cc#\ 4ee	.	4e/ 4cc#	.	4r	2.rd	.
8F#\	.	8F#\	.	.	8F#\	-go	8c#\	-go	.	8f#/	-go	.	8F#/ 8A	.	8c#/ 8f#	.	8c#/ 8f#	.	.	.	.	.	.	.	.	.	.	8a\ 8ff#	.	8f#/ 8cc#	.	8r	.	.
4F#\	.	4F#\	.	.	4F#\	mło-	4c#\	mło-	.	4f#/	mło-	.	4F#/ 4A	.	4c#/ 4f#	.	4c#/ 4f#	.	.	.	.	.	4A\] 4a]	4ryy	.	.	.	4a\ 4ff#	.	4f#/ 4cc#	.	4r	.	.
8A\	.	8A\	.	.	8A\	-da	8c#\	-da	.	8a\	-da	.	8A/	.	8c#/ 8e	.	8a/	.	.	.	.	.	8A/	8A\	.	.	.	8g\ 8ee	.	8e/ 8cc#	.	8aa\	.	.
=20	=20	=20	=20	=20	=20	=20	=20	=20	=20	=20	=20	=20	=20	=20	=20	=20	=20	=20	=20	=20	=20	=20	=20	=20	=20	=20	=20	=20	=20	=20	=20	=20	=20	=20
*tremolo	*	*tremolo	*	*	*	*	*	*	*	*	*	*	*tremolo	*	*tremolo	*	*	*	*	*	*	*	*tremolo	*tremolo	*	*	*	*	*	*	*	*	*	*
!	!	!	!	!	!	!	!	!	!	!	!	!	!	!	!	!	!	!	!	!	!	!	!	!	!	!LO:TX:t=P:problem:pp[ianissimo]=pp.	!LO:DY:rj	!	!	!	!	!	!	!
8A\L	.	8A\L	.	.	4.A\	pa-	4.c#\	pa-	.	4.a\	pa-	.	8A/L	.	8c#/L 8e	.	8a/L	.	2.ryy	.	2.r	.	8e/L	8A\L	.	(<4.AA\ (>4.c#	pp	(<4.g\ (>4.ee	.	(<4.e/ (>4.cc#	.	8aa\L	2.rd	.
!	!	!	!	!	!	!	!	!	!	!	!	!	!	!	!	!	!	!	!	!	!	!	!	!	!	!	!	!	!	!	!	!LO:TX:a:t=dolce&colon;	!	!
8A\	.	8A\	.	.	.	.	.	.	.	.	.	.	8A/	.	8c#/ 8e	.	16g#X/L	.	.	.	.	.	8e/	8A\	.	.	.	.	.	.	.	16gg#X\L	.	.
.	.	.	.	.	.	.	.	.	.	.	.	.	.	.	.	.	16a/	.	.	.	.	.	.	.	.	.	.	.	.	.	.	16aa\	.	.
8A\J	.	8A\J	.	.	.	.	.	.	.	.	.	.	8A/J	.	8c#/J 8e	.	16b/	.	.	.	.	.	8e/J	8A\J	.	.	.	.	.	.	.	16bb\	.	.
.	.	.	.	.	.	.	.	.	.	.	.	.	.	.	.	.	16a/JJ	.	.	.	.	.	.	.	.	.	.	.	.	.	.	16aa\JJ	.	.
*Xtremolo	*	*Xtremolo	*	*	*	*	*	*	*	*	*	*	*Xtremolo	*	*Xtremolo	*	*	*	*	*	*	*	*Xtremolo	*Xtremolo	*	*	*	*	*	*	*	*	*	*
8d\	.	8d\	.	.	8d\	-ro	8d\	-ro	.	8f#/	-ro	.	8A/	.	8d/	.	8f#/	.	.	.	.	.	4.ryy	8d\ 8f#	.	8D\) 8d)	.	8f#\) 8dd)	.	8f#/) 8dd)	.	8ff#\	.	.
8r	.	8r	.	.	8r	.	8r	.	.	8r	.	.	8F#/	.	8r	.	8r	.	.	.	.	.	.	8r	.	4r	.	8r	.	8r	.	8r	.	.
!	!	!	!	!	!	!	!	!	!	!LO:TX:a:t=(&colon; juz za sceną &colon;)	!	!	!	!	!	!	!	!	!	!	!	!	!	!	!	!	!	!	!	!	!	!	!	!
8AA/	.	8AA/	.	.	8A\	żyj	8c#\	żyj	.	8e/	żyj	.	8A/	.	8c#/	.	8c#/ 8e	.	.	.	.	.	.	8AA/ 8A	.	.	.	8e\ 8cc#	.	8r	.	8ryy	.	.
*	*	*	*	*	*	*	*	*	*	*	*	*	*	*	*	*	*	*	*	*	*	*	*v	*v	*	*	*	*	*	*	*	*v	*v	*
!!LO:PB:g=original
=21	=21	=21	=21	=21	=21	=21	=21	=21	=21	=21	=21	=21	=21	=21	=21	=21	=21	=21	=21	=21	=21	=21	=21	=21	=21	=21	=21	=21	=21	=21	=21	=21
*	*	*	*	*	*	*	*	*	*	*	*	*	*	*	*	*	*	*	*	*	*	*	*	*	*	*	*	*	*^	*	*	*
!LO:TX:a:t=Cello.\ne CB.:rj	!	!	!	!	!LO:TX:t=P:problem:all\left:global	!	!LO:TX:t=P:problem:all\left:global	!	!	!	!	!	!	!	!	!	!	!	!	!	!	!	!	!	!	!	!	!	!	!	!	!	!
4AA/	.	2.r	.	.	4A\	dłu-	4c#\	dłu-	.	4e/	dłu-	.	4A/	.	4c#/	.	4e/	.	2.r	.	2.r	.	[<4.AA/ [>4.A	.	2.r	.	4e\ 4cc#	.	4ee\	2.r	.	2.r	.
8FF#/	.	.	.	.	8F#\	-go	8c#\	-go	.	8f#/	-go	.	8A/	.	8c#/	.	8f#/	.	.	.	.	.	.	.	.	.	8f#\ 8a	.	8ff#\	.	.	.	.
4FF#/	.	.	.	.	4F#\	mło-	4c#\	mło-	.	4f#/	mło-	.	4A/	.	4c#/	.	4f#/	.	.	.	.	.	4AA/] 4A]	.	.	.	4f#\ 4a	.	4ff#\	.	.	.	.
(>8AA/	.	.	.	.	8AA/	-da	8A\ 8c#	-da	.	8e/	-da	.	8G/	.	8c#/ 8e	.	8a/	.	.	.	.	.	8AA/ 8A	.	.	.	8e/ 8g	.	8ee\	.	.	.	.
*	*	*	*	*	*	*	*	*	*	*	*	*	*	*	*	*	*	*	*	*	*	*	*	*	*	*	*	*	*v	*v	*	*	*
=22	=22	=22	=22	=22	=22	=22	=22	=22	=22	=22	=22	=22	=22	=22	=22	=22	=22	=22	=22	=22	=22	=22	=22	=22	=22	=22	=22	=22	=22	=22	=22	=22
*	*	*	*	*	*	*	*^	*	*	*	*	*	*	*	*	*	*	*	*	*	*	*	*^	*	*	*	*^	*	*	*	*	*
*tremolo	*	*	*	*	*	*	*	*2\right	*	*	*	*	*	*tremolo	*	*tremolo	*	*	*	*	*	*	*	*	*	*	*	*	*	*	*	*2\right	*	*	*
!	!	!LO:TX:a:t=Nieznajomy na balkonie&colon;	!	!	!	!	!	!	!	!	!	!	!	!	!	!	!	!	!	!	!	!	!	!	!	!	!	!	!	!	!	!	!	!	!
8AA/L)	.	2.r	.	.	2.AA/	pa-	2.c#/	2.G\	pa-	.	2.e/	pa-	.	8G/L 8e	>	8c#/L 8e	>	8a/L	>	2.r	.	2.r	.	[>2.A/	2.AA\	>	2.r	.	4.g/	4.e\	.	(<2.g\ (>2.ee	>]	2.r	.
8AA/	.	.	.	.	.	.	.	.	.	.	.	.	.	8G/ 8e	.	8c#/ 8e	.	8e/	.	.	.	.	.	.	.	.	.	.	.	.	.	.	.	.	.
8AA/	.	.	.	.	.	.	.	.	.	.	.	.	.	8G/ 8e	.	8c#/ 8e	.	8f#/J	.	.	.	.	.	.	.	.	.	.	.	.	.	.	.	.	.
8AA/	.	.	.	.	.	.	.	.	.	.	.	.	.	8G/ 8e	.	8c#/ 8e	.	8g/L	.	.	.	.	.	.	.	.	.	.	4r	4.ryy	.	.	.	.	.
8AA/	.	.	.	.	.	.	.	.	.	.	.	.	.	8G/ 8e	.	8c#/ 8e	.	8e/	.	.	.	.	.	.	.	.	.	.	.	.	.	.	.	.	.
8AA/J	.	.	.	.	.	.	.	.	.	.	.	.	.	8G/J 8e	]]	8c#/J 8e	]]	8a/J	]]	.	.	.	.	.	.	.	.	.	8r	.	.	.	.	.	.
*	*	*clefF4	*	*	*	*	*	*	*	*	*	*	*	*Xtremolo	*	*Xtremolo	*	*	*	*	*	*	*	*	*	*	*	*	*	*	*	*	*	*	*
*	*	*	*	*	*	*	*	*	*	*	*	*	*	*	*	*	*	*	*	*	*	*	*	*v	*v	*	*	*	*	*	*	*	*	*	*
=23	=23	=23	=23	=23	=23	=23	=23	=23	=23	=23	=23	=23	=23	=23	=23	=23	=23	=23	=23	=23	=23	=23	=23	=23	=23	=23	=23	=23	=23	=23	=23	=23	=23	=23
!	!	!	!	!	!	!	!	!	!	!	!	!	!	!	!	!	!	!	!	!	!	!	!	!	!	!	!	!	!	!	!	!	!LO:TX:t=P:problem:p[iano]=p.	!
!	!	!	!	!	!	!	!	!	!	!	!	!	!	!	!	!	!	!	!	!	!	!	!	!	!	!	!	!	!LO:TX:t=P:problem:p[iano]=p.	!	!	!	!LO:TX:b:t=dolcissimo.	!
!LO:TX:b:t=piu Lento.	!	!LO:TX:t=P:problem:all\left:global	!	!	!	!	!LO:TX:t=P:problem:all\left:global	!	!	!	!	!	!	!	!	!	!	!LO:TX:a:t=piu lento.	!	!	!	!	!	!	!	!	!	!LO:TX:b:t=dolcissimo.	!	!	!	!	!LO:TX:a:t=piu lento.:rj	!
8D\L	.	4.A\	ach	.	4D\	-ro.]	4d/	4F#\	-ro.]	.	4d/	-ro.	.	8A/L	.	8d/L	.	8f#/L	.	2.r	.	2.r	.	4D/ 4A]	]	2.r	.	4.a/	2.r	p	4f#\)) 4dd	.	4.aa\	p
8D\	.	.	.	.	.	.	.	.	.	.	.	.	.	16G#X/L	.	8d/	.	8f#/	.	.	.	.	.	.	.	.	.	.	.	.	.	.	.	.
.	.	.	.	.	.	.	.	.	.	.	.	.	.	16A/	.	.	.	.	.	.	.	.	.	.	.	.	.	.	.	.	.	.	.	.
8D\	.	.	.	.	8r	.	8r	2ryy	.	.	8r	.	.	16B/	.	8d/J	.	8f#/J	.	.	.	.	.	8r	.	.	.	.	.	.	8r	.	.	.
.	.	.	.	.	.	.	.	.	.	.	.	.	.	16A/JJ	.	.	.	.	.	.	.	.	.	.	.	.	.	.	.	.	.	.	.	.
*	*	*	*	*	*	*	*	*	*	*	*	*	*	*tremolo	*	*tremolo	*	*tremolo	*	*	*	*	*	*	*	*	*	*	*	*	*	*	*	*
8D\	.	4d\	mi-	.	4r	.	4r	.	.	.	4r	.	.	8A'</L	.	8d/L	.	8f#/L	.	.	.	.	.	4r	.	.	.	4dd/	.	.	4r	.	4ddd\	.
8D\	.	.	.	.	.	.	.	.	.	.	.	.	.	8A'</	.	8d/	.	8f#/	.	.	.	.	.	.	.	.	.	.	.	.	.	.	.	.
8D\J	.	8c#\	-ło	.	8r	.	8r	.	.	.	8r	.	.	8A'</J	.	8d/J	.	8f#/J	.	.	.	.	.	8r	.	.	.	8cc#/	.	.	8r	.	8ccc#\	.
*	*	*	*	*	*	*	*	*	*	*	*	*	*	*Xtremolo	*	*	*	*	*	*	*	*	*	*	*	*	*	*	*	*	*	*	*	*
*	*	*	*	*	*	*	*v	*v	*	*	*	*	*	*	*	*	*	*	*	*	*	*	*	*	*	*	*	*	*	*	*	*	*	*
=24	=24	=24	=24	=24	=24	=24	=24	=24	=24	=24	=24	=24	=24	=24	=24	=24	=24	=24	=24	=24	=24	=24	=24	=24	=24	=24	=24	=24	=24	=24	=24	=24	=24
8D\L	.	4.c#\	do-	.	2.r	.	2.r	.	.	2.r	.	.	8B/L	.	8d/L	.	8g/L	.	2.r	.	2.r	.	2.r	.	2.r	.	(<4.cc#/	2.r	.	2.r	.	(>4.ccc#\	.
8D\	.	.	.	.	.	.	.	.	.	.	.	.	16A#X/L	.	8d/	.	8g/	.	.	.	.	.	.	.	.	.	.	.	.	.	.	.	.
.	.	.	.	.	.	.	.	.	.	.	.	.	16B/	.	.	.	.	.	.	.	.	.	.	.	.	.	.	.	.	.	.	.	.
8D\	.	.	.	.	.	.	.	.	.	.	.	.	16c#/	.	8d/	.	8g/	.	.	.	.	.	.	.	.	.	.	.	.	.	.	.	.
.	.	.	.	.	.	.	.	.	.	.	.	.	16B/JJ	.	.	.	.	.	.	.	.	.	.	.	.	.	.	.	.	.	.	.	.
*	*	*	*	*	*	*	*	*	*	*	*	*	*tremolo	*	*	*	*	*	*	*	*	*	*	*	*	*	*	*	*	*	*	*	*
8D\	.	4B\	-brze	.	.	.	.	.	.	.	.	.	8B/L	.	8d/	.	8g/	.	.	.	.	.	.	.	.	.	4b/)	.	.	.	.	4bb\)	.
8D\	.	.	.	.	.	.	.	.	.	.	.	.	8B/	.	8d/	.	8g/	.	.	.	.	.	.	.	.	.	.	.	.	.	.	.	.
8D\J	.	8r	.	.	.	.	.	.	.	.	.	.	8B/J	.	8d/J	.	8g/J	.	.	.	.	.	.	.	.	.	8r	.	.	.	.	8r	.
*	*	*	*	*	*	*	*	*	*	*	*	*	*Xtremolo	*	*	*	*	*	*	*	*	*	*	*	*	*	*	*	*	*	*	*	*
=25	=25	=25	=25	=25	=25	=25	=25	=25	=25	=25	=25	=25	=25	=25	=25	=25	=25	=25	=25	=25	=25	=25	=25	=25	=25	=25	=25	=25	=25	=25	=25	=25	=25
8D\L	.	4.G\	czy-	.	2.r	.	2.r	.	.	2.r	.	.	8c#/L	.	8A/L	.	8g/L	.	2.r	.	2.r	.	2.r	.	2.r	.	4.g/	2.r	.	2.r	.	4.gg\	.
8D\	.	.	.	.	.	.	.	.	.	.	.	.	16B/L	.	8A/	.	8g/	.	.	.	.	.	.	.	.	.	.	.	.	.	.	.	.
.	.	.	.	.	.	.	.	.	.	.	.	.	16c#/	.	.	.	.	.	.	.	.	.	.	.	.	.	.	.	.	.	.	.	.
8D\	.	.	.	.	.	.	.	.	.	.	.	.	16d/	.	8A/	.	8g/	.	.	.	.	.	.	.	.	.	.	.	.	.	.	.	.
.	.	.	.	.	.	.	.	.	.	.	.	.	16c#/JJ	.	.	.	.	.	.	.	.	.	.	.	.	.	.	.	.	.	.	.	.
*	*	*	*	*	*	*	*	*	*	*	*	*	*tremolo	*	*	*	*	*	*	*	*	*	*	*	*	*	*	*	*	*	*	*	*
8D\	.	4B\	-nić	.	.	.	.	.	.	.	.	.	8c#/L	.	8A/	.	8g/	.	.	.	.	.	.	.	.	.	4b/	.	.	.	.	4bb\	.
8D\	.	.	.	.	.	.	.	.	.	.	.	.	8c#/	.	8A/	.	8g/	.	.	.	.	.	.	.	.	.	.	.	.	.	.	.	.
8D\J	.	8A\	w u-	.	.	.	.	.	.	.	.	.	8c#/J	.	8A/J	.	8g/J	.	.	.	.	.	.	.	.	.	8a/	.	.	.	.	8aa\	.
*	*	*	*	*	*	*	*	*	*	*	*	*	*Xtremolo	*	*	*	*	*	*	*	*	*	*	*	*	*	*	*	*	*	*	*	*
*	*	*	*	*	*	*	*	*	*	*	*	*	*	*	*	*	*	*	*	*	*	*	*	*	*	*	*v	*v	*	*	*	*	*
=26	=26	=26	=26	=26	=26	=26	=26	=26	=26	=26	=26	=26	=26	=26	=26	=26	=26	=26	=26	=26	=26	=26	=26	=26	=26	=26	=26	=26	=26	=26	=26	=26
8D\L	.	(>4A\	-kry-	.	2.r	.	2.r	.	.	2.r	.	.	8d\L	.	8A/L	.	8f#/L	.	2.r	.	2.r	.	2.r	.	2.r	.	(<4a/	.	2.r	.	(>4aa\	.
8D\	.	.	.	.	.	.	.	.	.	.	.	.	16c#\L	.	8A/	.	8f#/	.	.	.	.	.	.	.	.	.	.	.	.	.	.	.
.	.	.	.	.	.	.	.	.	.	.	.	.	16d\	.	.	.	.	.	.	.	.	.	.	.	.	.	.	.	.	.	.	.
8D\	.	8G\)	.	.	.	.	.	.	.	.	.	.	16e\	.	8A/	.	8f#/	.	.	.	.	.	.	.	.	.	8g/)	.	.	.	8gg\	.
.	.	.	.	.	.	.	.	.	.	.	.	.	16d\JJ	.	.	.	.	.	.	.	.	.	.	.	.	.	.	.	.	.	.	.
*	*	*	*	*	*	*	*	*	*	*	*	*	*tremolo	*	*	*	*	*	*	*	*	*	*	*	*	*	*	*	*	*	*	*
!	!	!	!	!	!	!	!	!	!	!	!	!	!LO:TX:a:t=d	!	!	!	!	!	!	!	!	!	!	!	!	!	!	!	!	!	!	!
8D\	.	4F#\	-ciu	.	.	.	.	.	.	.	.	.	8d\L	.	8A/	.	8f#/	.	.	.	.	.	.	.	.	.	4f#/	.	.	.	4ff#\)	.
8D\	.	.	.	.	.	.	.	.	.	.	.	.	8d\	.	8A/	.	8f#/	.	.	.	.	.	.	.	.	.	.	.	.	.	.	.
8D\J	.	8r	.	.	.	.	.	.	.	.	.	.	8d\J	.	8A/J	.	8f#/J	.	.	.	.	.	.	.	.	.	8r	.	.	.	8r	.
*	*	*	*	*	*	*	*	*	*	*	*	*	*	*	*Xtremolo	*	*Xtremolo	*	*	*	*	*	*	*	*	*	*	*	*	*	*	*
=27	=27	=27	=27	=27	=27	=27	=27	=27	=27	=27	=27	=27	=27	=27	=27	=27	=27	=27	=27	=27	=27	=27	=27	=27	=27	=27	=27	=27	=27	=27	=27	=27
*	*	*	*	*	*	*	*	*	*	*	*	*	*	*	*tremolo	*	*	*	*	*	*	*	*	*	*	*	*	*	*	*	*	*
8D\L	.	4.F#\	do-	.	2.r	.	2.r	.	.	2.r	.	.	8A/L	.	8d/L	.	8f#'</L	.	2.r	.	2.r	.	2.r	.	2.r	.	2.r	.	2.r	.	2.r	.
8D\	.	.	.	.	.	.	.	.	.	.	.	.	8A/	.	8d/	.	16e#X/L	.	.	.	.	.	.	.	.	.	.	.	.	.	.	.
.	.	.	.	.	.	.	.	.	.	.	.	.	.	.	.	.	16f#/	.	.	.	.	.	.	.	.	.	.	.	.	.	.	.
8D\J	.	.	.	.	.	.	.	.	.	.	.	.	8A/	.	8d/J	.	16g/	.	.	.	.	.	.	.	.	.	.	.	.	.	.	.
.	.	.	.	.	.	.	.	.	.	.	.	.	.	.	.	.	16f#/JJ	.	.	.	.	.	.	.	.	.	.	.	.	.	.	.
8C#\L	.	4A\	-bre-	.	.	.	.	.	.	.	.	.	8A/	.	8e/L	.	(<8a/L	.	.	.	.	.	.	.	.	.	.	.	.	.	.	.
8C#\	.	.	.	.	.	.	.	.	.	.	.	.	8A/	.	8e/	.	8e#/)	.	.	.	.	.	.	.	.	.	.	.	.	.	.	.
8C#\J	.	8E\	-go	.	.	.	.	.	.	.	.	.	8A/J	.	8e/J	.	8e#'</J	.	.	.	.	.	.	.	.	.	.	.	.	.	.	.
*Xtremolo	*	*	*	*	*	*	*	*	*	*	*	*	*Xtremolo	*	*Xtremolo	*	*	*	*	*	*	*	*	*	*	*	*	*	*	*	*	*
!!LO:PB:g=original
=28	=28	=28	=28	=28	=28	=28	=28	=28	=28	=28	=28	=28	=28	=28	=28	=28	=28	=28	=28	=28	=28	=28	=28	=28	=28	=28	=28	=28	=28	=28	=28	=28
*	*	*	*	*	*	*	*	*	*	*	*	*	*	*	*tremolo	*	*	*	*	*	*	*	*	*	*	*	*	*	*	*	*	*
4.D\	.	[>4.F#\	czy-	.	2.r	.	2.r	.	.	2.r	.	.	8A/L	.	8d/L	.	8f#'</L	.	2.r	.	2.r	.	2.r	.	2.r	.	2.r	.	2.r	.	2.r	.
.	.	.	.	.	.	.	.	.	.	.	.	.	8F#/	.	8d/	.	16e#X/L	.	.	.	.	.	.	.	.	.	.	.	.	.	.	.
.	.	.	.	.	.	.	.	.	.	.	.	.	.	.	.	.	16f#/	.	.	.	.	.	.	.	.	.	.	.	.	.	.	.
.	.	.	.	.	.	.	.	.	.	.	.	.	8F#/J	.	8d/J	.	16g/	.	.	.	.	.	.	.	.	.	.	.	.	.	.	.
.	.	.	.	.	.	.	.	.	.	.	.	.	.	.	.	.	16f#/JJ	.	.	.	.	.	.	.	.	.	.	.	.	.	.	.
*	*	*	*	*	*	*	*	*	*	*	*	*	*tremolo	*	*	*	*	*	*	*	*	*	*	*	*	*	*	*	*	*	*	*
4.AA#X/	.	4F#\]	.	.	.	.	.	.	.	.	.	.	8F#/L	.	8c#/L	.	(<8f#/L	.	.	.	.	.	.	.	.	.	.	.	.	.	.	.
.	.	.	.	.	.	.	.	.	.	.	.	.	8F#/	.	8c#/	.	8c#/)	.	.	.	.	.	.	.	.	.	.	.	.	.	.	.
.	.	8E\	-nu	.	.	.	.	.	.	.	.	.	8F#/J	.	8c#/J	.	8c#'</J	.	.	.	.	.	.	.	.	.	.	.	.	.	.	.
*	*	*	*	*	*	*	*	*	*	*	*	*	*Xtremolo	*	*Xtremolo	*	*	*	*	*	*	*	*	*	*	*	*	*	*	*	*	*
=29	=29	=29	=29	=29	=29	=29	=29	=29	=29	=29	=29	=29	=29	=29	=29	=29	=29	=29	=29	=29	=29	=29	=29	=29	=29	=29	=29	=29	=29	=29	=29	=29
(<4.BB/	.	(>4D\	ci-	.	2.r	.	2.r	.	.	2.r	.	.	8F#/L	.	8B/L	.	8d/L	.	2.r	.	2.r	.	2.r	.	2.r	.	2.r	.	2.r	.	2.r	.
.	.	.	.	.	.	.	.	.	.	.	.	.	16E#X/L	.	8B/	.	8d/	.	.	.	.	.	.	.	.	.	.	.	.	.	.	.
.	.	.	.	.	.	.	.	.	.	.	.	.	16F#/	.	.	.	.	.	.	.	.	.	.	.	.	.	.	.	.	.	.	.
.	.	8E\)	.	.	.	.	.	.	.	.	.	.	16G/	.	8c#/J	.	8e/J	.	.	.	.	.	.	.	.	.	.	.	.	.	.	.
.	.	.	.	.	.	.	.	.	.	.	.	.	16F#/JJ	.	.	.	.	.	.	.	.	.	.	.	.	.	.	.	.	.	.	.
4AA/	.	4F#\	-che	.	.	.	.	.	.	.	.	.	8A/L	.	8d/L	.	8f#/L	.	.	.	.	.	.	.	.	.	.	.	.	.	.	.
.	.	.	.	.	.	.	.	.	.	.	.	.	8A/	.	8d/	.	8f#/	.	.	.	.	.	.	.	.	.	.	.	.	.	.	.
.	.	8qA/	.	.	.	.	.	.	.	.	.	.	.	.	.	.	.	.	.	.	.	.	.	.	.	.	.	.	.	.	.	.
8GG/)	.	8G\	spom-	.	.	.	.	.	.	.	.	.	8B/J	.	8e/J	.	8g/J	.	.	.	.	.	.	.	.	.	.	.	.	.	.	.
=30	=30	=30	=30	=30	=30	=30	=30	=30	=30	=30	=30	=30	=30	=30	=30	=30	=30	=30	=30	=30	=30	=30	=30	=30	=30	=30	=30	=30	=30	=30	=30	=30
*	*	*	*	*	*	*	*	*	*	*	*	*	*	*	*tremolo	*	*tremolo	*	*	*	*	*	*	*	*	*	*	*	*	*	*	*
4.AA/	.	4.F#\	-nie-	.	2.r	.	2.r	.	.	2.r	.	.	8A/L	.	8d/L	.	8f#/L	.	2.r	.	2.r	.	2.r	.	2.r	.	2.r	.	2.r	.	2.r	.
.	.	.	.	.	.	.	.	.	.	.	.	.	16G#X/L	.	8d/	.	8f#/	.	.	.	.	.	.	.	.	.	.	.	.	.	.	.
.	.	.	.	.	.	.	.	.	.	.	.	.	16A/	.	.	.	.	.	.	.	.	.	.	.	.	.	.	.	.	.	.	.
.	.	.	.	.	.	.	.	.	.	.	.	.	16B/	.	8d/J	.	8f#/J	.	.	.	.	.	.	.	.	.	.	.	.	.	.	.
.	.	.	.	.	.	.	.	.	.	.	.	.	16A/JJ	.	.	.	.	.	.	.	.	.	.	.	.	.	.	.	.	.	.	.
*	*	*	*	*	*	*	*	*	*	*	*	*	*tremolo	*	*	*	*	*	*	*	*	*	*	*	*	*	*	*	*	*	*	*
4AA/	.	4E\	-nia	.	.	.	.	.	.	.	.	.	8A/L	.	8c#/L	.	8e/L	.	.	.	.	.	.	.	.	.	.	.	.	.	.	.
.	.	.	.	.	.	.	.	.	.	.	.	.	8A/	.	8c#/	.	8e/	.	.	.	.	.	.	.	.	.	.	.	.	.	.	.
8r	.	8r	.	.	.	.	.	.	.	.	.	.	8A/J	.	8c#/J	.	8e/J	.	.	.	.	.	.	.	.	.	.	.	.	.	.	.
*	*	*	*	*	*	*	*	*	*	*	*	*	*Xtremolo	*	*	*	*	*	*	*	*	*	*	*	*	*	*	*	*	*	*	*
=31	=31	=31	=31	=31	=31	=31	=31	=31	=31	=31	=31	=31	=31	=31	=31	=31	=31	=31	=31	=31	=31	=31	=31	=31	=31	=31	=31	=31	=31	=31	=31	=31
*^	*	*	*	*	*	*	*	*	*	*	*	*	*	*	*	*	*	*	*	*	*	*	*	*	*	*	*^	*	*	*	*	*
*tremolo	*	*	*	*	*	*	*	*	*	*	*	*	*	*	*	*	*	*	*	*	*	*	*	*	*	*	*	*	*	*	*	*	*	*
!	!	!LO:DY:rj	!	!	!	!	!	!	!	!	!	!	!	!	!LO:DY:rj	!	!LO:DY:rj	!	!	!	!	!	!	!	!	!	!	!	!	!	!	!	!	!
8D/L	[<2.D\	f	4.A\	nie-	.	2.r	.	2.r	.	.	2.r	.	.	8A/L	f	8d/L	f	8f#/L	f	2.r	.	2.r	.	2.r	.	2.r	.	(>4.a\	2.r	<	2.r	.	(>4.aa\	<
8D/	.	.	.	.	.	.	.	.	.	.	.	.	.	16G#X/L	.	8d/	.	8f#/	.	.	.	.	.	.	.	.	.	.	.	.	.	.	.	.
.	.	.	.	.	.	.	.	.	.	.	.	.	.	16A/	.	.	.	.	.	.	.	.	.	.	.	.	.	.	.	.	.	.	.	.
8D/	.	.	.	.	.	.	.	.	.	.	.	.	.	16B/	.	8d/	.	8f#/	.	.	.	.	.	.	.	.	.	.	.	.	.	.	.	.
.	.	.	.	.	.	.	.	.	.	.	.	.	.	16A/JJ	.	.	.	.	.	.	.	.	.	.	.	.	.	.	.	.	.	.	.	.
*	*	*	*	*	*	*	*	*	*	*	*	*	*	*tremolo	*	*	*	*	*	*	*	*	*	*	*	*	*	*	*	*	*	*	*	*
8D/	.	.	4f#\	-je-	.	.	.	.	.	.	.	.	.	8A/L	.	8d/	.	8f#/	.	.	.	.	.	.	.	.	.	4ff#\)	.	[	.	.	4fff#\	[
8D/	.	.	.	.	.	.	.	.	.	.	.	.	.	8A/	.	8d/	.	8f#/	.	.	.	.	.	.	.	.	.	.	.	.	.	.	.	.
8D/J	.	.	8d\	-dną	.	.	.	.	.	.	.	.	.	8A/J	.	8d/J	.	8f#/J	.	.	.	.	.	.	.	.	.	8dd\	.	.	.	.	8ddd\)	.
=32	=32	=32	=32	=32	=32	=32	=32	=32	=32	=32	=32	=32	=32	=32	=32	=32	=32	=32	=32	=32	=32	=32	=32	=32	=32	=32	=32	=32	=32	=32	=32	=32	=32	=32
8D/L	2.D\_<	.	4.c#\	tro-	.	2.r	.	2.r	.	.	2.r	.	.	8B/L	.	8e/L	.	8g/L	.	2.r	.	2.r	.	2.r	.	2.r	.	(>4.cc#\	2.r	.	2.r	.	(>4.ccc#\	.
8D/	.	.	.	.	.	.	.	.	.	.	.	.	.	8B/	.	8e/	.	8g/	.	.	.	.	.	.	.	.	.	.	.	.	.	.	.	.
8D/	.	.	.	.	.	.	.	.	.	.	.	.	.	8B/	.	8e/	.	8g/	.	.	.	.	.	.	.	.	.	.	.	.	.	.	.	.
8D/	.	.	4B\	-skę	.	.	.	.	.	.	.	.	.	8B/	.	8e/	.	8g/	.	.	.	.	.	.	.	.	.	4b\)	.	.	.	.	4bb\)	.
8D/	.	.	.	.	.	.	.	.	.	.	.	.	.	8B/	.	8e/	.	8g/	.	.	.	.	.	.	.	.	.	.	.	.	.	.	.	.
8D/J	.	.	8r	.	.	.	.	.	.	.	.	.	.	8B/J	.	8e/J	.	8g/J	.	.	.	.	.	.	.	.	.	8r	.	.	.	.	8r	.
=33	=33	=33	=33	=33	=33	=33	=33	=33	=33	=33	=33	=33	=33	=33	=33	=33	=33	=33	=33	=33	=33	=33	=33	=33	=33	=33	=33	=33	=33	=33	=33	=33	=33	=33
8D/L	2.D\_<	.	4.G\	ła-	.	2.r	.	2.r	.	.	2.r	.	.	8c#/L	.	8e/L	.	8A/L 8g	.	2.r	.	2.r	.	2.r	.	2.r	.	4.g\	2.r	.	2.r	.	4.gg\	.
8D/	.	.	.	.	.	.	.	.	.	.	.	.	.	8c#/	.	8e/	.	8A/ 8g	.	.	.	.	.	.	.	.	.	.	.	.	.	.	.	.
8D/	.	.	.	.	.	.	.	.	.	.	.	.	.	8c#/	.	8e/	.	8A/ 8g	.	.	.	.	.	.	.	.	.	.	.	.	.	.	.	.
8D/	.	.	4c#\	-go-	.	.	.	.	.	.	.	.	.	8c#/	.	8e/	.	8A/ 8g	.	.	.	.	.	.	.	.	.	4cc#\	.	.	.	.	4ccc#\	.
8D/	.	.	.	.	.	.	.	.	.	.	.	.	.	8c#/	.	8e/	.	8A/ 8g	.	.	.	.	.	.	.	.	.	.	.	.	.	.	.	.
8D/J	.	.	8B\	-dzi	.	.	.	.	.	.	.	.	.	8c#/J	.	8e/J	.	8A/J 8g	.	.	.	.	.	.	.	.	.	8b\	.	.	.	.	8bb\	.
=34	=34	=34	=34	=34	=34	=34	=34	=34	=34	=34	=34	=34	=34	=34	=34	=34	=34	=34	=34	=34	=34	=34	=34	=34	=34	=34	=34	=34	=34	=34	=34	=34	=34	=34
*	*	*	*	*	*	*	*	*	*	*	*	*	*	*2\right	*	*	*	*	*	*	*	*	*	*	*	*	*	*	*	*	*	*	*	*
8D/L	2.D\]	.	4.B\	w ży-	.	2.r	.	2.r	.	.	2.r	.	.	8d\L	.	8d/L	.	8A/L 8f#	.	2.r	.	2.r	.	2.r	.	2.r	.	(>4.b\	2.r	.	2.r	.	(>4.bb\	.
8D/	.	.	.	.	.	.	.	.	.	.	.	.	.	8d\	.	8d/	.	8A/ 8f#	.	.	.	.	.	.	.	.	.	.	.	.	.	.	.	.
8D/	.	.	.	.	.	.	.	.	.	.	.	.	.	8d\	.	8d/	.	8A/ 8f#	.	.	.	.	.	.	.	.	.	.	.	.	.	.	.	.
8D/	.	.	4A\	-ciu	.	.	.	.	.	.	.	.	.	8d\	.	8d/	.	8A/ 8f#	.	.	.	.	.	.	.	.	.	4a\)	.	.	.	.	4aa\)	.
8D/	.	.	.	.	.	.	.	.	.	.	.	.	.	8d\	.	8d/	.	8A/ 8f#	.	.	.	.	.	.	.	.	.	.	.	.	.	.	.	.
8D/J	.	.	8r	.	.	.	.	.	.	.	.	.	.	8d\J	.	8d/J	.	8A/J 8f#	.	.	.	.	.	.	.	.	.	8r	.	.	.	.	8r	.
*Xtremolo	*	*	*	*	*	*	*	*	*	*	*	*	*	*Xtremolo	*	*	*	*	*	*	*	*	*	*	*	*	*	*	*	*	*	*	*	*
*v	*v	*	*	*	*	*	*	*	*	*	*	*	*	*	*	*	*	*	*	*	*	*	*	*	*	*	*	*v	*v	*	*	*	*	*
!!LO:PB:g=original
=35	=35	=35	=35	=35	=35	=35	=35	=35	=35	=35	=35	=35	=35	=35	=35	=35	=35	=35	=35	=35	=35	=35	=35	=35	=35	=35	=35	=35	=35	=35	=35	=35
8Cn/L	.	4.A\	nie-	.	2.r	.	2.r	.	.	2.r	.	.	8cn\L	.	8d/L	.	8A/L 8f#	.	2.r	.	2.r	.	2.r	.	2.r	.	2.r	.	2.r	.	2.r	.
16BB/L	.	.	.	.	.	.	.	.	.	.	.	.	16B\L	.	8d/	.	8A/ 8f#	.	.	.	.	.	.	.	.	.	.	.	.	.	.	.
16C/	.	.	.	.	.	.	.	.	.	.	.	.	16c\	.	.	.	.	.	.	.	.	.	.	.	.	.	.	.	.	.	.	.
16D/	.	.	.	.	.	.	.	.	.	.	.	.	16d\	.	8d/	.	8A/ 8f#	.	.	.	.	.	.	.	.	.	.	.	.	.	.	.
16C/JJ	.	.	.	.	.	.	.	.	.	.	.	.	16c\JJ	.	.	.	.	.	.	.	.	.	.	.	.	.	.	.	.	.	.	.
*tremolo	*	*	*	*	*	*	*	*	*	*	*	*	*tremolo	*	*	*	*	*	*	*	*	*	*	*	*	*	*	*	*	*	*	*
8C/L	.	4G\	-je-	.	.	.	.	.	.	.	.	.	8c\L	.	8d/	.	8A/ 8f#	.	.	.	.	.	.	.	.	.	.	.	.	.	.	.
8C/	.	.	.	.	.	.	.	.	.	.	.	.	8c\	.	8d/	.	8A/ 8f#	.	.	.	.	.	.	.	.	.	.	.	.	.	.	.
8C/J	.	8F#\	-dno	.	.	.	.	.	.	.	.	.	8c\J	.	8d/J	.	8A/J 8f#	.	.	.	.	.	.	.	.	.	.	.	.	.	.	.
*	*	*	*	*	*	*	*	*	*	*	*	*	*	*	*Xtremolo	*	*Xtremolo	*	*	*	*	*	*	*	*	*	*	*	*	*	*	*
=36	=36	=36	=36	=36	=36	=36	=36	=36	=36	=36	=36	=36	=36	=36	=36	=36	=36	=36	=36	=36	=36	=36	=36	=36	=36	=36	=36	=36	=36	=36	=36	=36
!	!	!	!	!	!	!	!	!	!	!	!	!	!	!	!	!	!	!LO:DY:a	!	!	!	!	!	!	!	!	!	!	!	!	!	!
8BB/L	.	4.G\	ser-	.	2.r	.	2.r	.	.	2.r	.	.	8B/L	.	8d/L	.	8G/L 8g	.	2.r	.	2.r	.	2.r	.	2.r	.	2.r	.	2.r	.	2.r	.
8BB/	.	.	.	.	.	.	.	.	.	.	.	.	8B/	.	16c#/L	.	8g/	.	.	.	.	.	.	.	.	.	.	.	.	.	.	.
.	.	.	.	.	.	.	.	.	.	.	.	.	.	.	16d/	.	.	.	.	.	.	.	.	.	.	.	.	.	.	.	.	.
!	!	!	!	!	!	!	!	!	!	!	!	!	!	!LO:DY:a	!LO:TX:b:t=accel-lerando.:dur=5q:ext=ud	!LO:DY:a	!LO:TX:b:t=accel-le-rando.:dur=8q:ext=ud	!	!	!	!	!	!	!	!	!	!	!	!	!	!	!
8BB/J	<	.	.	.	.	.	.	.	.	.	.	.	8B/J	<	16e/	<	8g/J	<	.	.	.	.	.	.	.	.	.	.	.	.	.	.
.	.	.	.	.	.	.	.	.	.	.	.	.	.	.	16d/JJ	.	.	.	.	.	.	.	.	.	.	.	.	.	.	.	.	.
*	*	*	*	*	*	*	*	*	*	*	*	*	*	*	*	*	*tremolo	*	*	*	*	*	*	*	*	*	*	*	*	*	*	*
!LO:TX:a:t=ac-cel-le-rando.:dur=7q1e:ext=ud	!	!	!	!	!	!	!	!	!	!	!	!	!LO:TX:b:t=accel-lerando.:dur=6q:ext=ud	!	!	!	!	!	!	!	!	!	!	!	!	!	!	!	!	!	!	!
8E#X\L	.	4.G#X\	-ce	.	.	.	.	.	.	.	.	.	8G#X/L	.	16e/LL	.	8g#X/L	.	.	.	.	.	.	.	.	.	.	.	.	.	.	.
.	.	.	.	.	.	.	.	.	.	.	.	.	.	.	16d/	.	.	.	.	.	.	.	.	.	.	.	.	.	.	.	.	.
8E#\	.	.	.	.	.	.	.	.	.	.	.	.	8G#/	.	16e/	.	8g#/	.	.	.	.	.	.	.	.	.	.	.	.	.	.	.
.	.	.	.	.	.	.	.	.	.	.	.	.	.	.	16d/	.	.	.	.	.	.	.	.	.	.	.	.	.	.	.	.	.
8E#\J	.	.	.	.	.	.	.	.	.	.	.	.	8G#/J	.	16e/	.	8g#/J	.	.	.	.	.	.	.	.	.	.	.	.	.	.	.
.	.	.	.	.	.	.	.	.	.	.	.	.	.	.	16d/JJ	.	.	.	.	.	.	.	.	.	.	.	.	.	.	.	.	.
=37	=37	=37	=37	=37	=37	=37	=37	=37	=37	=37	=37	=37	=37	=37	=37	=37	=37	=37	=37	=37	=37	=37	=37	=37	=37	=37	=37	=37	=37	=37	=37	=37
*	*	*	*	*	*	*	*	*	*	*	*	*	*	*	*tremolo	*	*	*	*	*	*	*	*	*	*	*	*	*	*	*	*	*
8F#\L	.	4.A\	go-	.	2.r	.	2.r	.	.	2.r	.	.	8A/L	.	16e/LL	.	8a/L	.	2.r	.	2.r	.	2.r	.	2.r	.	2.r	.	2.r	.	2.r	.
.	.	.	.	.	.	.	.	.	.	.	.	.	.	.	16d/	.	.	.	.	.	.	.	.	.	.	.	.	.	.	.	.	.
8F#\	.	.	.	.	.	.	.	.	.	.	.	.	8A/	.	16e/	.	8a/	.	.	.	.	.	.	.	.	.	.	.	.	.	.	.
.	.	.	.	.	.	.	.	.	.	.	.	.	.	.	16d/	.	.	.	.	.	.	.	.	.	.	.	.	.	.	.	.	.
8F#\	.	.	.	.	.	.	.	.	.	.	.	.	8A/J	.	16e/	.	8a/J	.	.	.	.	.	.	.	.	.	.	.	.	.	.	.
.	.	.	.	.	.	.	.	.	.	.	.	.	.	.	16d/	.	.	.	.	.	.	.	.	.	.	.	.	.	.	.	.	.
8F#\	.	4A#X\	-i	.	.	.	.	.	.	.	.	.	8D/L	.	16e/	.	8a#X/L	.	.	.	.	.	.	.	.	.	.	.	.	.	.	.
.	.	.	.	.	.	.	.	.	.	.	.	.	.	.	16d/	.	.	.	.	.	.	.	.	.	.	.	.	.	.	.	.	.
*	*	*	*	*	*	*	*	*	*	*	*	*	*Xtremolo	*	*	*	*	*	*	*	*	*	*	*	*	*	*	*	*	*	*	*
8F#\	.	.	.	.	.	.	.	.	.	.	.	.	8D/	.	16e/	.	8a#/	.	.	.	.	.	.	.	.	.	.	.	.	.	.	.
.	.	.	.	.	.	.	.	.	.	.	.	.	.	.	16d/	.	.	.	.	.	.	.	.	.	.	.	.	.	.	.	.	.
8F#\J	.	8A#\	cier-	.	.	.	.	.	.	.	.	.	8D/J	.	16e/	.	8a#/J	.	.	.	.	.	.	.	.	.	.	.	.	.	.	.
.	.	.	.	.	.	.	.	.	.	.	.	.	.	.	16d/JJ	.	.	.	.	.	.	.	.	.	.	.	.	.	.	.	.	.
=38	=38	=38	=38	=38	=38	=38	=38	=38	=38	=38	=38	=38	=38	=38	=38	=38	=38	=38	=38	=38	=38	=38	=38	=38	=38	=38	=38	=38	=38	=38	=38	=38
8G\L	.	4.B\	-pie-	.	2.r	.	2.r	.	.	2.r	.	.	8Fn/L	.	8G/L 8g	.	8d/L 8b	.	2.r	.	2.r	.	2.r	.	2.r	.	2.r	.	2.r	.	2.r	.
8G\	.	.	.	.	.	.	.	.	.	.	.	.	16E/L	.	8G/ 8g	.	8d/ 8b	.	.	.	.	.	.	.	.	.	.	.	.	.	.	.
.	.	.	.	.	.	.	.	.	.	.	.	.	16F/	.	.	.	.	.	.	.	.	.	.	.	.	.	.	.	.	.	.	.
8G\J	.	.	.	.	.	.	.	.	.	.	.	.	16G/	.	8G/ 8g	.	8d/ 8b	.	.	.	.	.	.	.	.	.	.	.	.	.	.	.
.	.	.	.	.	.	.	.	.	.	.	.	.	16F/JJ	.	.	.	.	.	.	.	.	.	.	.	.	.	.	.	.	.	.	.
.	.	16qqc#/LL	.	.	.	.	.	.	.	.	.	.	.	.	.	.	.	.	.	.	.	.	.	.	.	.	.	.	.	.	.	.
.	.	16qqB/JJ	.	.	.	.	.	.	.	.	.	.	.	.	.	.	.	.	.	.	.	.	.	.	.	.	.	.	.	.	.	.
8GG/L	.	4A#X\	-nia,	.	.	.	.	.	.	.	.	.	16G/LL	.	8G/ 8g	.	8d/ 8b	.	.	.	.	.	.	.	.	.	.	.	.	.	.	.
.	.	.	.	.	.	.	.	.	.	.	.	.	16F/	.	.	.	.	.	.	.	.	.	.	.	.	.	.	.	.	.	.	.
8GG/	.	.	.	.	.	.	.	.	.	.	.	.	16E/	[	8G/ 8g	.	8d/ 8b	.	.	.	.	.	.	.	.	.	.	.	.	.	.	.
.	.	.	.	.	.	.	.	.	.	.	.	.	16F/	.	.	.	.	.	.	.	.	.	.	.	.	.	.	.	.	.	.	.
8GG/J	.	8B\	nie-	.	.	.	.	.	.	.	.	.	16G/	.	8G/J 8g	[[	8d/J 8b	[[	.	.	.	.	.	.	.	.	.	.	.	.	.	.
.	.	.	.	.	.	.	.	.	.	.	.	.	16F/JJ	.	.	.	.	.	.	.	.	.	.	.	.	.	.	.	.	.	.	.
*	*	*	*	*	*	*	*	*	*	*	*	*	*	*	*	*	*Xtremolo	*	*	*	*	*	*	*	*	*	*	*	*	*	*	*
=39	=39	=39	=39	=39	=39	=39	=39	=39	=39	=39	=39	=39	=39	=39	=39	=39	=39	=39	=39	=39	=39	=39	=39	=39	=39	=39	=39	=39	=39	=39	=39	=39
*	*	*	*	*	*	*	*	*	*	*	*	*	*	*	*	*	*	*	*	*	*	*	*^	*	*^	*	*	*	*	*	*	*
*	*	*2\left	*	*	*	*	*	*	*	*	*	*	*tremolo	*	*	*	*	*	*	*	*	*	*	*	*	*	*	*	*	*	*	*	*	*
!	!	!	!	!	!	!	!	!	!	!	!	!	!	!	!	!	!LO:TX:t=P:problem:f[orte]=f.	!	!	!	!	!	!	!	!	!	!	!	!	!	!	!	!	!
!	!	!	!	!	!	!	!	!	!	!LO:TX:a:t=Lento	!	!	!	!	!LO:TX:t=P:problem:f[orte]=f.	!	!LO:TX:a:t=Lento.	!	!	!	!	!	!	!	!	!	!	!	!LO:TX:a:t=Lento.	!	!	!	!	!
8GG#X/L	.	(>2.e\	-je-	.	2.r	.	2.r	.	.	2.r	.	.	8E/L	f	8d/L 8b	f	8b\L 8ee	f	2.r	.	2.r	.	[>2.e/	[<2.d\	f > ]]	[>2.B/	[<2.G#X\	f > ]]	[<2.b\ [>2.dd	f > ]]	2.r	.	2.r	.
8GG#/	.	.	.	.	.	.	.	.	.	.	.	.	8E/	.	8d/ 8b	.	8b\ 8ee	.	.	.	.	.	.	.	.	.	.	.	.	.	.	.	.	.
8GG#/	.	.	.	.	.	.	.	.	.	.	.	.	8E/	.	8d/ 8b	.	8b\J 8ee	.	.	.	.	.	.	.	.	.	.	.	.	.	.	.	.	.
*	*	*	*	*	*	*	*	*	*	*	*	*	*	*	*	*	*tremolo	*	*	*	*	*	*	*	*	*	*	*	*	*	*	*	*	*
8GG#/	.	.	.	.	.	.	.	.	.	.	.	.	8E/	.	8d/ 8b	.	8b\L 8ee	.	.	.	.	.	.	.	.	.	.	.	.	.	.	.	.	.
8GG#/	.	.	.	.	.	.	.	.	.	.	.	.	8E/	.	8d/ 8b	.	8b\ 8ee	.	.	.	.	.	.	.	.	.	.	.	.	.	.	.	.	.
8GG#/J	[[	.	.	.	.	.	.	.	.	.	.	.	8E/J	.	8d/J 8b	.	8b\J 8ee	.	.	.	.	.	.	.	.	.	.	.	.	.	.	.	.	.
*Xtremolo	*Xtremolo	*	*	*	*	*	*	*	*	*	*	*	*Xtremolo	*	*Xtremolo	*	*Xtremolo	*	*	*	*	*	*	*	*	*	*	*	*	*	*	*	*	*
=40	=40	=40	=40	=40	=40	=40	=40	=40	=40	=40	=40	=40	=40	=40	=40	=40	=40	=40	=40	=40	=40	=40	=40	=40	=40	=40	=40	=40	=40	=40	=40	=40	=40	=40
!LO:TX:t=P:problem:f[orte]=f.	!LO:DY:rj	!	!	!	!	!	!	!	!	!	!	!	!	!	!	!	!	!	!	!	!	!	!	!	!	!	!	!	!	!	!	!	!	!
4GG#X/	f	4.d\)	.	.	2.r	.	2.r	.	.	2.r	.	.	4E/	.	4d/	.	4.dd\	>	2.r	.	2.r	.	4e/]	4d\]	.	4B/]	4G#\]	.	4b/] 4dd]	.	2.r	.	2.r	.
8r	.	.	.	.	.	.	.	.	.	.	.	.	8r	.	8r	.	.	.	.	.	.	.	8r	2ryy	.	8r	2ryy	.	8r	.	.	.	.	.
4r	.	4.B\	-dno	.	.	.	.	.	.	.	.	.	4r	.	4r	.	4.b\	]]	.	.	.	.	4r	.	.	4r	.	.	4r	.	.	.	.	.
8r	.	.	.	.	.	.	.	.	.	.	.	.	8r	.	8r	.	.	.	.	.	.	.	8r	.	.	8r	.	.	8r	.	.	.	.	.
*	*	*	*	*	*	*	*	*	*	*	*	*	*	*	*	*	*	*	*	*	*	*	*v	*v	*	*	*	*	*	*	*	*	*	*
*	*	*	*	*	*	*	*	*	*	*	*	*	*	*	*	*	*	*	*	*	*	*	*	*	*v	*v	*	*	*	*	*	*	*
=41	=41	=41	=41	=41	=41	=41	=41	=41	=41	=41	=41	=41	=41	=41	=41	=41	=41	=41	=41	=41	=41	=41	=41	=41	=41	=41	=41	=41	=41	=41	=41	=41
*^	*	*	*	*	*	*	*	*	*	*	*	*	*	*	*	*	*	*	*	*	*	*	*	*	*	*	*	*	*	*	*	*
*tremolo	*	*	*2\right	*	*	*	*	*	*	*	*	*	*	*	*	*tremolo	*	*tremolo	*	*	*	*	*	*	*	*	*	*	*	*	*	*	*
!	!	!	!	!	!	!	!	!	!	!	!	!	!	!LO:TX:b:t=a tempo 1mo	!	!	!	!LO:TX:t=P:problem:p[iano]=p.	!	!	!	!	!	!	!	!	!	!	!	!	!	!	!
!LO:TX:a:t=a tempo 1mo	!LO:TX:t=P:problem:p[iano]=p.	!LO:DY:rj	!	!	!	!	!	!	!	!	!	!	!	!LO:TX:t=P:problem:p[iano]=p.	!LO:DY:rj	!LO:TX:t=P:problem:p[iano]=p.	!LO:DY:rj	!LO:TX:a:t=a tempo 1mo	!	!	!	!	!	!	!	!	!	!	!	!	!	!	!
8AA/L	[<2.AA\	p	[>2.A\	ser-	.	2.r	.	2.r	.	.	2.r	.	.	(<4.F#/	p	8A/L 8d	p	8a/L	p	2.r	.	2.r	.	2.r	.	2.r	.	2.r	.	2.r	.	2.r	.
8AA/	.	.	.	.	.	.	.	.	.	.	.	.	.	.	.	8A/ 8d	.	8a/	.	.	.	.	.	.	.	.	.	.	.	.	.	.	.
8AA/	.	.	.	.	.	.	.	.	.	.	.	.	.	.	.	8A/J 8d	.	8a/J	.	.	.	.	.	.	.	.	.	.	.	.	.	.	.
8AA/	.	.	.	.	.	.	.	.	.	.	.	.	.	4.D#X^</)	.	8B#X/L	.	8A/L 8f#X	.	.	.	.	.	.	.	.	.	.	.	.	.	.	.
8AA/	.	.	.	.	.	.	.	.	.	.	.	.	.	.	.	8B#/	.	8A/ 8f#	.	.	.	.	.	.	.	.	.	.	.	.	.	.	.
8AA/J	.	.	.	.	.	.	.	.	.	.	.	.	.	.	.	8B#/J	.	8A/J 8f#	.	.	.	.	.	.	.	.	.	.	.	.	.	.	.
*	*	*	*	*	*	*	*	*	*	*	*	*	*	*	*	*Xtremolo	*	*Xtremolo	*	*	*	*	*	*	*	*	*	*	*	*	*	*	*
!!LO:PB:g=original
=42	=42	=42	=42	=42	=42	=42	=42	=42	=42	=42	=42	=42	=42	=42	=42	=42	=42	=42	=42	=42	=42	=42	=42	=42	=42	=42	=42	=42	=42	=42	=42	=42	=42
*	*	*	*	*	*	*	*	*	*	*	*	*	*	*	*	*tremolo	*	*tremolo	*	*	*	*	*	*	*	*	*	*	*	*	*	*	*
!	!LO:TX:t=P:problem:brak zakończenia ligatury	!	!	!	!	!	!	!	!	!	!	!	!	!	!	!	!	!	!	!	!	!	!	!	!	!	!	!	!	!	!	!	!
8AA/L	4.AA\]	.	4.A\]	.	.	2.r	.	2.r	.	.	2.r	.	.	4.E/	.	8c#/L	.	8A/L 8g	.	2.r	.	2.r	.	2.r	.	2.r	.	2.r	.	2.r	.	2.r	.
8AA/	.	.	.	.	.	.	.	.	.	.	.	.	.	.	.	8c#/	.	8A/ 8g	.	.	.	.	.	.	.	.	.	.	.	.	.	.	.
8AA/J	.	.	.	.	.	.	.	.	.	.	.	.	.	.	.	8c#/J	.	8A/J 8g	.	.	.	.	.	.	.	.	.	.	.	.	.	.	.
8AA/L	4.AA\	.	4.A\	-ca	.	.	.	.	.	.	.	.	.	4.D/	.	8d/L	.	8A/L 8f#	.	.	.	.	.	.	.	.	.	.	.	.	.	.	.
8AA/	.	.	.	.	.	.	.	.	.	.	.	.	.	.	.	8d/	.	8A/ 8f#	.	.	.	.	.	.	.	.	.	.	.	.	.	.	.
8AA/J	.	.	.	.	.	.	.	.	.	.	.	.	.	.	.	8d/J	.	8A/J 8f#	.	.	.	.	.	.	.	.	.	.	.	.	.	.	.
*	*	*	*	*	*	*	*	*	*	*	*	*	*	*	*	*Xtremolo	*	*Xtremolo	*	*	*	*	*	*	*	*	*	*	*	*	*	*	*
=43	=43	=43	=43	=43	=43	=43	=43	=43	=43	=43	=43	=43	=43	=43	=43	=43	=43	=43	=43	=43	=43	=43	=43	=43	=43	=43	=43	=43	=43	=43	=43	=43	=43
4AA/	4AA\	.	(>4.A\	go-	.	2.r	.	2.r	.	.	2.r	.	.	4A/	.	4c#/	.	4G/ 4e	.	2.r	.	2.r	.	2.r	.	2.r	.	2.r	.	2.r	.	2.r	.
!	!	!	!	!	!	!	!	!	!	!	!	!	!	!	!	!	!	!LO:TX:a:t=colla parte.	!	!	!	!	!	!	!	!	!	!	!	!	!	!	!
8r	2ryy	.	.	.	.	.	.	.	.	.	.	.	.	8r	.	8r	.	8r	.	.	.	.	.	.	.	.	.	.	.	.	.	.	.
4r	.	.	4.A#X\)	.	.	.	.	.	.	.	.	.	.	4r	.	4r	.	4r	.	.	.	.	.	.	.	.	.	.	.	.	.	.	.
!	!	!	!	!	!	!	!	!	!	!	!	!	!	!	!	!LO:TX:b:t=colla parte.	!	!	!	!	!	!	!	!	!	!	!	!	!	!	!	!	!
8r	.	.	.	.	.	.	.	.	.	.	.	.	.	8r	.	8r	.	8r	.	.	.	.	.	.	.	.	.	.	.	.	.	.	.
*v	*v	*	*	*	*	*	*	*	*	*	*	*	*	*	*	*	*	*	*	*	*	*	*	*	*	*	*	*	*	*	*	*	*
=44	=44	=44	=44	=44	=44	=44	=44	=44	=44	=44	=44	=44	=44	=44	=44	=44	=44	=44	=44	=44	=44	=44	=44	=44	=44	=44	=44	=44	=44	=44	=44	=44
!	!	!	!	!	!	!	!	!	!	!	!	!	!	!	!	!	!	!	!	!	!	!	!	!	!	!	!	!	!	!	!LO:TX:a:t=Presto.	!
2.r	.	[>4.B\	-i	.	2.r	.	2.r	.	.	2.r	.	.	2.r	.	2.r	.	2.r	.	2.r	.	2.r	.	2.r	.	2.r	.	2.r	.	2.r	.	2.r	.
.	.	4B\]	.	.	.	.	.	.	.	.	.	.	.	.	.	.	.	.	.	.	.	.	.	.	.	.	.	.	.	.	.	.
.	.	8C#/	cier-	.	.	.	.	.	.	.	.	.	.	.	.	.	.	.	.	.	.	.	.	.	.	.	.	.	.	.	.	.
=45	=45	=45	=45	=45	=45	=45	=45	=45	=45	=45	=45	=45	=45	=45	=45	=45	=45	=45	=45	=45	=45	=45	=45	=45	=45	=45	=45	=45	=45	=45	=45	=45
*	*	*	*	*	*	*	*	*	*	*	*	*	*	*	*	*	*	*	*	*	*^	*	*	*	*^	*	*^	*	*^	*	*^	*
!LO:TX:t=P:problem:ff=ff.	!	!	!	!	!	!	!	!	!	!	!	!	!	!	!	!	!	!	!	!	!	!	!	!	!	!	!	!	!	!	!	!	!	!	!	!	!
!LO:TX:t=P:problem:all\left:global	!	!	!	!	!	!	!	!	!	!	!	!	!	!	!	!	!	!	!LO:TX:t=P:problem:4\left:global	!	!	!	!	!	!	!	!	!	!	!	!	!	!	!	!	!	!
!	!	!	!	!	!	!	!	!	!	!	!	!	!	!	!	!	!LO:TX:a:B:t=Presto.:rj	!	!	!	!	!	!	!	!	!	!	!LO:DY:rj	!	!	!	!	!	!	!	!	!
8D\L	ff	8D\	-pie-	.	2.r	.	2.r	.	.	2.r	.	.	8F#/L	ff	8f#/	.	8d/	.	4D\	.	8r	8ryy	ff	8r	.	8D/L	8D\L	ff	8r	8ryy	.	8r	8ryy	.	8r	8ryy	.
!LO:TX:b:B:t=presto.	!	!	!	!	!	!	!	!	!	!	!	!	!	!	!	!LO:DY:rj	!	!LO:DY:rj	!	!	!	!	!	!	!LO:DY:rj	!	!	!	!	!	!LO:DY:rj	!	!	!LO:DY:rj	!	!	!
8A\	.	8D\	-nia.	.	.	.	.	.	.	.	.	.	8A/	.	8A/L 8f#	ff	16d/LL 16dd	ff	.	.	16d/LL	16d\LL	.	16F#/LL 16d	ff	8A/	8A\	.	16d/LL	16d\LL	ff	16d/LL	16d\LL	ff	16dd/LL	16dd\LL	ff
.	.	.	.	.	.	.	.	.	.	.	.	.	.	.	.	.	16d/J 16dd	.	.	.	16d/J	16d\J	.	16F#/J 16d	.	.	.	.	16d/J	16d\J	.	16d/J	16d\J	.	16dd/J	16dd\J	.
8F#\J	.	8r	.	.	.	.	.	.	.	.	.	.	8F#/J	.	8A/J 8f#	.	8d/J 8dd	.	8r	.	8d/J	8d\J	.	8F#/J 8d	.	8F#/J	8F#\J	.	8d/J	8d\J	.	8d/J	8d\J	.	8dd/J	8dd\J	.
8D\L	.	4r	.	.	.	.	.	.	.	.	.	.	8D/L	.	8A/L 8f#	.	8d/L 8dd	.	4D\	.	8d/L	8d\L	.	8F#/L 8d	.	8D/L	8D\L	.	8d/L	8d\L	.	8d/L	8d\L	.	8dd/L	8dd\L	.
8A\	.	.	.	.	.	.	.	.	.	.	.	.	8A/	.	8f#/ 8a	.	16a/L 16ff#	.	.	.	8d/ 8f#	8d\	.	8A/ 8f#	.	8A/	8A\	.	16f#/L	16d\L	.	16f#/L	16d\L	.	16ff#/L	16dd\L	.
.	.	.	.	.	.	.	.	.	.	.	.	.	.	.	.	.	16a/J 16ff#	.	.	.	.	.	.	.	.	.	.	.	16f#/J	16d\J	.	16f#/J	16d\J	.	16ff#/J	16dd\J	.
8F#\J	.	8r	.	.	.	.	.	.	.	.	.	.	8F#/J	.	8f#/J 8a	.	8a/J 8ff#	.	8r	.	8d/J 8f#	8d\J	.	8A/J 8f#	.	8F#/J	8F#\J	.	8f#/J	8d\J	.	8f#/J	8d\J	.	8ff#/J	8dd\J	.
*	*	*	*	*	*	*	*	*	*	*	*	*	*	*	*	*	*	*	*	*	*	*	*	*	*	*	*	*	*v	*v	*	*	*	*	*v	*v	*
*	*	*	*	*	*	*	*	*	*	*	*	*	*	*	*	*	*	*	*	*	*v	*v	*	*	*	*	*	*	*	*	*v	*v	*	*	*
=46	=46	=46	=46	=46	=46	=46	=46	=46	=46	=46	=46	=46	=46	=46	=46	=46	=46	=46	=46	=46	=46	=46	=46	=46	=46	=46	=46	=46	=46	=46	=46	=46	=46
!	!	!	!	!	!	!	!	!	!	!	!	!	!	!	!	!	!LO:TX:t=P:problem:all\left:global	!	!	!	!	!	!LO:TX:t=P:problem:all\left:global	!	!	!	!	!	!	!	!	!	!
8D\L	.	2.r	.	.	2.r	.	2.r	.	.	2.r	.	.	8D/L	.	8f#/ 8a	.	8a\L 8ff#	.	4D\	.	8d/L 8f#	.	8A\L 8f#	.	8D/L	8D\L	.	8d\L 8f#\	.	8d/L 8f#	.	8dd\L 8ff#	.
!	!	!	!	!	!	!	!	!	!	!	!	!	!	!	!	!	!	!	!	!	!	!	!	!	!	!	!	!	!	!	!	!LO:TX:t=P:problem:all\left:global	!
8A\	.	.	.	.	.	.	.	.	.	.	.	.	8A/	.	16dd\LL 16ff#	.	16a\L 16aa	.	.	.	16f#/L 16a	.	8f#\ 8a	.	8A/	8A\	.	8f#\ 8a\	.	8f#/ 8a	.	8ff#\ 8aa	.
.	.	.	.	.	.	.	.	.	.	.	.	.	.	.	16dd\J 16ff#	.	16a\J 16aa	.	.	.	16f#/J 16a	.	.	.	.	.	.	.	.	.	.	.	.
8F#\J	.	.	.	.	.	.	.	.	.	.	.	.	8F#/J	.	8dd\J 8ff#	.	8a\J 8aa	.	8r	.	8f#/J 8a	.	8f#\J 8a	.	8F#/J	8F#\J	.	8f#\J 8a\	.	8f#/J 8a	.	8ff#\J 8aa	.
!	!	!	!	!	!	!	!	!	!	!	!	!	!	!	!LO:TX:t=P:problem:all\left:global	!	!	!	!	!	!	!	!	!	!	!	!	!	!	!	!	!	!
8D\L	.	.	.	.	.	.	.	.	.	.	.	.	8D/L	.	8dd\L 8ff#	.	8a\L 8aa	.	4D\	.	8f#/L 8a	.	8f#\L 8a	.	8D/L	8D\L	.	8f#\L 8a	.	8f#/L 8a	.	8ff#\L 8aa	.
8A\	.	.	.	.	.	.	.	.	.	.	.	.	8A/	.	8dd\ 8ff#	.	8a\ 8ddd	.	.	.	8f#/ 8dd	.	8d\ 8f#	.	8A/	8A\	.	8f#\ 8dd	.	8f#/ 8dd	.	8ff#\ 8ddd	.
8F#\J	.	.	.	.	.	.	.	.	.	.	.	.	8F#/J	.	8dd\J 8ff#	.	8a\J 8ddd	.	8r	.	8f#/J 8dd	.	8d\J 8f#	.	8F#/J	8F#\J	.	8f#\J 8dd	.	8f#/J 8dd	.	8ff#\J 8ddd	.
=47	=47	=47	=47	=47	=47	=47	=47	=47	=47	=47	=47	=47	=47	=47	=47	=47	=47	=47	=47	=47	=47	=47	=47	=47	=47	=47	=47	=47	=47	=47	=47	=47	=47
4D\	.	2.r	.	.	2.r	.	2.r	.	.	2.r	.	.	4D/	.	4dd\ 4ff#	.	4a\ 4ddd	.	4D\	.	4f#/ 4dd	.	4d\ 4f#	.	4D/	4D\	.	4f#\ 4dd	.	4f#/ 4dd	.	4ff#\ 4ddd	.
8r	.	.	.	.	.	.	.	.	.	.	.	.	8r	.	8r	.	8r	.	8r	.	8r	.	8r	.	8ryy	8r	.	8r	.	8r	.	8r	.
!	!	!	!	!	!	!	!	!	!	!	!	!	!LO:TX:t=P:problem:4\left:global	!	!	!	!	!	!	!	!	!	!LO:TX:t=P:problem:all\left:global	!	!	!	!	!	!	!LO:TX:t=P:problem:4\left:global	!	!	!
4d\	.	.	.	.	.	.	.	.	.	.	.	.	4F#\ 4A 4d 4a	.	4d\ 4dd 4ff#	.	4d\ 4a 4ddd	.	4D\	.	4dd\ 4ff#	.	4d\ 4f#	.	4d/	4d\	.	4a\ 4ff#	.	4f#/ 4dd	.	4ddd\ 4fff#	.
8r	.	.	.	.	.	.	.	.	.	.	.	.	8r	.	8r	.	8r	.	8r	.	8r	.	8r	.	8ryy	8r	.	8r	.	8r	.	8r	.
=48	=48	=48	=48	=48	=48	=48	=48	=48	=48	=48	=48	=48	=48	=48	=48	=48	=48	=48	=48	=48	=48	=48	=48	=48	=48	=48	=48	=48	=48	=48	=48	=48	=48
4A\	.	2.r	.	.	2.r	.	2.r	.	.	2.r	.	.	4F#\ 4A 4d 4a	.	4d\ 4dd 4ff#	.	4d\ 4a 4ddd	.	4D\	.	4dd\ 4ff#	.	4d\ 4f#	.	4A/	4A\	.	4a\ 4ff#	.	4f#/ 4dd	.	4ddd\ 4fff#	.
8r	.	.	.	.	.	.	.	.	.	.	.	.	8r	.	8r	.	8r	.	8r	.	8r	.	8r	.	8ryy	8r	.	8r	.	8r	.	8r	.
4F#\	.	.	.	.	.	.	.	.	.	.	.	.	4F#\ 4A 4d 4a	.	4d\ 4dd 4ff#	.	4d\ 4a 4ddd	.	4D\	.	4dd\ 4ff#	.	4d\ 4f#	.	4F#/	4F#\	.	4a\ 4ff#	.	4f#/ 4dd	.	4ddd\ 4fff#	.
8r	.	.	.	.	.	.	.	.	.	.	.	.	8r	.	8r	.	8r	.	8r	.	8r	.	8r	.	8ryy	8r	.	8r	.	8r	.	8r	.
=49	=49	=49	=49	=49	=49	=49	=49	=49	=49	=49	=49	=49	=49	=49	=49	=49	=49	=49	=49	=49	=49	=49	=49	=49	=49	=49	=49	=49	=49	=49	=49	=49	=49
*	*	*	*	*	*	*	*	*	*	*	*	*	*	*	*	*	*	*	*tremolo	*	*	*	*	*	*	*	*	*	*	*	*	*	*
4D\	.	2.r	.	.	2.r	.	2.r	.	.	2.r	.	.	4F#\ 4A 4d 4a	.	4d\ 4dd 4ff#	.	4d\ 4a 4ddd	.	16D\LL	.	4dd\ 4ff#	.	4d\ 4f#	.	4D/	4D\	.	4f#\ 4dd	.	4f#/ 4dd	.	4ddd\ 4fff#	.
.	.	.	.	.	.	.	.	.	.	.	.	.	.	.	.	.	.	.	16D\	.	.	.	.	.	.	.	.	.	.	.	.	.	.
.	.	.	.	.	.	.	.	.	.	.	.	.	.	.	.	.	.	.	16D\	.	.	.	.	.	.	.	.	.	.	.	.	.	.
.	.	.	.	.	.	.	.	.	.	.	.	.	.	.	.	.	.	.	16D\	.	.	.	.	.	.	.	.	.	.	.	.	.	.
8r	.	.	.	.	.	.	.	.	.	.	.	.	8r	.	8r	.	8r	.	16D\	.	8r	.	8r	.	8r	8ryy	.	8r	.	8r	.	8r	.
.	.	.	.	.	.	.	.	.	.	.	.	.	.	.	.	.	.	.	16D\	.	.	.	.	.	.	.	.	.	.	.	.	.	.
4r	.	.	.	.	.	.	.	.	.	.	.	.	4r	.	4r	.	4r	.	16D\	.	4r	.	4r	.	4r	4ryy	.	4r	.	4r	.	4r	.
.	.	.	.	.	.	.	.	.	.	.	.	.	.	.	.	.	.	.	16D\	.	.	.	.	.	.	.	.	.	.	.	.	.	.
.	.	.	.	.	.	.	.	.	.	.	.	.	.	.	.	.	.	.	16D\	.	.	.	.	.	.	.	.	.	.	.	.	.	.
.	.	.	.	.	.	.	.	.	.	.	.	.	.	.	.	.	.	.	16D\	.	.	.	.	.	.	.	.	.	.	.	.	.	.
8r	.	.	.	.	.	.	.	.	.	.	.	.	8r	.	8r	.	8r	.	16D\	.	8r	.	8r	.	8r	8ryy	.	8r	.	8r	.	8r	.
.	.	.	.	.	.	.	.	.	.	.	.	.	.	.	.	.	.	.	16D\JJ	.	.	.	.	.	.	.	.	.	.	.	.	.	.
*	*	*	*	*	*	*	*	*	*	*	*	*	*	*	*	*	*	*	*	*	*	*	*	*	*v	*v	*	*	*	*	*	*	*
=50	=50	=50	=50	=50	=50	=50	=50	=50	=50	=50	=50	=50	=50	=50	=50	=50	=50	=50	=50	=50	=50	=50	=50	=50	=50	=50	=50	=50	=50	=50	=50	=50
!	!	!	!	!	!	!	!	!	!	!	!	!	!	!	!	!	!	!	!	!	!	!	!	!	!LO:TX:t=P:problem:4\left	!	!	!	!LO:TX:t=P:problem:4\left	!	!	!
4D\	.	2.r	.	.	2.r	.	2.r	.	.	2.r	.	.	4F#\ 4A 4d 4a	.	4d\ 4dd 4ff#	.	4d\ 4a 4fff#	.	16D\LL	.	4f#\ 4dd	.	4A\ 4f#	.	4D\ 4d	.	4ff#\ 4aa	.	4a\ 4ff#	.	4ddd\ 4fff#	.
.	.	.	.	.	.	.	.	.	.	.	.	.	.	.	.	.	.	.	16D\	.	.	.	.	.	.	.	.	.	.	.	.	.
.	.	.	.	.	.	.	.	.	.	.	.	.	.	.	.	.	.	.	16D\	.	.	.	.	.	.	.	.	.	.	.	.	.
.	.	.	.	.	.	.	.	.	.	.	.	.	.	.	.	.	.	.	16D\	.	.	.	.	.	.	.	.	.	.	.	.	.
!LO:TX:b:t=Koniec.	!	!	!	!	!	!	!	!	!	!	!	!	!	!	!	!	!	!	!	!	!	!	!	!	!	!	!	!	!	!	!	!
8r	.	.	.	.	.	.	.	.	.	.	.	.	8r	.	8r	.	8r	.	16D\	.	8r	.	8r	.	8r	.	8r	.	8r	.	8r	.
.	.	.	.	.	.	.	.	.	.	.	.	.	.	.	.	.	.	.	16D\	.	.	.	.	.	.	.	.	.	.	.	.	.
4r	.	.	.	.	.	.	.	.	.	.	.	.	4r	.	4r	.	4r	.	16D\	.	4r	.	4r	.	4r	.	4r	.	4r	.	4r	.
.	.	.	.	.	.	.	.	.	.	.	.	.	.	.	.	.	.	.	16D\	.	.	.	.	.	.	.	.	.	.	.	.	.
.	.	.	.	.	.	.	.	.	.	.	.	.	.	.	.	.	.	.	16D\	.	.	.	.	.	.	.	.	.	.	.	.	.
.	.	.	.	.	.	.	.	.	.	.	.	.	.	.	.	.	.	.	16D\	.	.	.	.	.	.	.	.	.	.	.	.	.
8r	.	.	.	.	.	.	.	.	.	.	.	.	8r	.	8r	.	8r	.	16D\	.	8r	.	8r	.	8r	.	8r	.	8r	.	8r	.
.	.	.	.	.	.	.	.	.	.	.	.	.	.	.	.	.	.	.	16D\JJ	.	.	.	.	.	.	.	.	.	.	.	.	.
*	*	*	*	*	*	*	*	*	*	*	*	*	*	*	*	*	*	*	*	*	*	*Xtremolo	*	*	*	*	*	*	*	*	*	*
=51	=51	=51	=51	=51	=51	=51	=51	=51	=51	=51	=51	=51	=51	=51	=51	=51	=51	=51	=51	=51	=51	=51	=51	=51	=51	=51	=51	=51	=51	=51	=51	=51
*	*	*	*	*	*	*	*	*	*	*	*	*	*	*	*	*	*	*	*	*	*	*	*	*	*	*	*^	*	*^	*	*^	*
.	.	.	.	.	.	.	.	.	.	.	.	.	8qD/	.	8qd/	.	8qd/	.	.	.	.	.	8qd/	.	8qD/	.	8qd/	8qd\	.	8qd/	8qd\	.	8qdd/	8qdd\	.
*	*	*	*	*	*	*	*	*	*	*	*	*	*	*	*	*	*	*	*	*	*^	*	*^	*	*	*	*	*	*	*	*	*	*	*	*
*2\right	*	*	*	*	*	*	*	*	*	*	*	*	*	*	*	*	*	*	*2\left	*	*	*2\right	*	*	*2\right	*	*	*	*	*	*	*	*	*	*	*2\right	*
2.D;>\	.	2.r;>	.	.	2.r;>	.	2.r;>	.	.	2.r;>	.	.	2.D;>/	.	2.d;>/	.	2.d;>/	.	2.D;>\	.	2.d;>/	2.d\	.	2.d;>/	2.D\	.	2.DD;>/ 2.D	.	2.d;>/	2.d\	.	2.d;>/	2.d\	.	2.dd;>/	2.dd\	.
*	*	*	*	*	*	*	*	*	*	*	*	*	*	*	*	*	*	*	*	*	*v	*v	*	*	*	*	*	*	*v	*v	*	*v	*v	*	*v	*v	*
*	*	*	*	*	*	*	*	*	*	*	*	*	*	*	*	*	*	*	*	*	*	*	*v	*v	*	*	*	*	*	*	*	*	*
==	==	==	==	==	==	==	==	==	==	==	==	==	==	==	==	==	==	==	==	==	==	==	==	==	==	==	==	==	==	==	==	==
*-	*-	*-	*-	*-	*-	*-	*-	*-	*-	*-	*-	*-	*-	*-	*-	*-	*-	*-	*-	*-	*-	*-	*-	*-	*-	*-	*-	*-	*-	*-	*-	*-
!!!system-decoration: s1,s2,s3,s4,s5,s6,s7,[{s8,s9,s10}],[{s11,s12,s13}],s14,s15
!!!ENC: Andrzej Gręziak
!!!END: 2021-09-07
!!!EED: Jędrzej Mróz
!!!ESR: 2021-10-01
!!!RDF**kern: > = above
!!!RDF**kern: < = below
!!!RDF**kern: @ = marked note, color=blue
!!!RDF**kern: | = vertical stroke
